; generated by PrusaSlicer 2.5.0+MacOS-arm64 on 2023-03-03 at 12:58:35 UTC


;
;
; 

; external perimeters extrusion width = 0.45mm
; perimeters extrusion width = 0.45mm
; infill extrusion width = 0.45mm
; solid infill extrusion width = 0.45mm
; top infill extrusion width = 0.40mm
; first layer extrusion width = 0.70mm

M73 P0 R158
M73 Q0 S159
M201 X1000 Y1000 Z200 E5000 ; sets maximum accelerations, mm/sec^2
M203 X200 Y200 Z12 E120 ; sets maximum feedrates, mm / sec
M204 P1250 R1250 T1250 ; sets acceleration (P, T) and retract acceleration (R), mm/sec^2
M205 X8.00 Y8.00 Z0.40 E4.50 ; sets the jerk limits, mm/sec
M205 S0 T0 ; sets the minimum extruding and travel feed rate, mm/sec
M107
;TYPE:Custom
M862.3 P "MK3S" ; printer model check
M862.1 P0.4 ; nozzle diameter check
M115 U3.12.1 ; tell printer latest fw version
G90 ; use absolute coordinates
M83 ; extruder relative mode
M104 S205 ; set extruder temp
M140 S65 ; set bed temp
M190 S65 ; wait for bed temp
M109 S205 ; wait for extruder temp
G28 W ; home all without mesh bed level
G80 ; mesh bed leveling

G1 Z0.2 F720
G1 Y-3 F1000 ; go outside print area
G92 E0
G1 X60 E9 F1000 ; intro line
G1 X100 E12.5 F1000 ; intro line

G92 E0
M221 S95

; Don't change E values below. Excessive value can damage the printer.

G21 ; set units to millimeters
G90 ; use absolute coordinates
M83 ; use relative distances for extrusion
M900 K0.05 ; Filament gcode LA 1.5
M900 K30 ; Filament gcode LA 1.0
M107
;LAYER_CHANGE
;Z:0.35
;HEIGHT:0.35
;BEFORE_LAYER_CHANGE
G92 E0.0
;0.35


G1 E-2 F2100
G1 Z.35 F7800
;AFTER_LAYER_CHANGE
;0.35
G1 X11.864 Y32.202
G1 E2 F2100
;TYPE:Skirt/Brim
;WIDTH:0.7
G1 F1800
G1 X13.82 Y31.481 E.18953
G1 X15 Y31.375 E.10771
G1 X56.19 Y31.378 E3.74542
G1 X230.19 Y36.378 E15.82828
G1 X232.437 Y36.84 E.20854
M73 Q0 S158
G1 X234.391 Y38.04 E.20854
G1 X235.819 Y39.834 E.20854
G1 X236.625 Y43 E.29705
G1 X236.625 Y167.064 E11.28111
G1 X236.228 Y169.323 E.20854
G1 X235.085 Y171.311 E.20854
G1 X233.332 Y172.79 E.20854
G1 X230.188 Y173.687 E.29727
G1 X56.188 Y178.622 E15.82811
G1 X15 Y178.625 E3.74519
G1 X12.741 Y178.228 E.20854
G1 X10.753 Y177.085 E.20854
G1 X9.274 Y175.332 E.20854
G1 X8.481 Y173.18 E.20854
G1 X8.375 Y172 E.10771
G1 X8.375 Y38 E12.18456
G1 X8.772 Y35.741 E.20854
G1 X9.915 Y33.753 E.20854
G1 X11.668 Y32.274 E.20854
G1 X11.808 Y32.222 E.01356
;WIPE_START
G1 F6240
G1 X13.82 Y31.481 E-.68556
G1 X15 Y31.375 E-.37871
G1 X17.614 Y31.375 E-.83573
;WIPE_END
G1 E-.1 F2100
G1 X16.6 Y170.4 F7800
G1 E2 F2100
;TYPE:Perimeter
;WIDTH:0.7
G1 F1800
G1 X16.6 Y39.6 E11.89362
G1 X54.4 Y39.6 E3.43718
G1 X54.4 Y170.4 E11.89362
G1 X16.66 Y170.4 E3.43172
G1 X15.975 Y171.025 F7800
G1 F1800
G1 X15.975 Y38.975 E12.00726
G1 X55.025 Y38.975 E3.55082
M73 P0 R157
G1 X55.025 Y171.025 E12.00726
G1 X16.035 Y171.025 E3.54536
G1 X15.35 Y171.65 F7800
;TYPE:External perimeter
G1 F1800
G1 X15.35 Y38.35 E12.12091
G1 X55.65 Y38.35 E3.66446
G1 X55.65 Y171.65 E12.12091
G1 X15.41 Y171.65 E3.659
G1 X15.389 Y171.252 F7800
;WIPE_START
G1 F6240
G1 X15.407 Y165.707 E-1.9
;WIPE_END
G1 E-.1 F2100
G1 X37.088 Y77.093 F7800
G1 E2 F2100
;TYPE:Perimeter
G1 F1800
G1 X37.968 Y77.328 E.08275
G1 X38.262 Y77.449 E.02893
G1 X38.998 Y77.844 E.07598
G1 X39.269 Y78.029 E.02982
G1 X39.921 Y78.58 E.07762
G1 X40.556 Y79.32 E.08862
G1 X41.115 Y80.303 E.10283
G1 X41.236 Y80.597 E.02893
G1 X41.464 Y81.367 E.07301
G1 X41.593 Y82.417 E.09626
G1 X41.529 Y83.42 E.09135
G1 X41.272 Y84.436 E.09528
G1 X41.152 Y84.738 E.02958
G1 X40.727 Y85.549 E.0832
G1 X40.545 Y85.823 E.02997
G1 X40.026 Y86.447 E.07377
G1 X39.801 Y86.667 E.02862
G1 X39.169 Y87.174 E.07371
G1 X38.202 Y87.707 E.1004
G1 X37.188 Y88.031 E.09676
G1 X36.147 Y88.157 E.09539
G1 X35.099 Y88.086 E.09546
G1 X34.032 Y87.8 E.10044
G1 X33.738 Y87.679 E.02893
G1 X33.002 Y87.285 E.07598
G1 X32.731 Y87.1 E.02982
G1 X32.079 Y86.548 E.07762
G1 X31.444 Y85.809 E.08862
G1 X30.885 Y84.826 E.10284
G1 X30.764 Y84.532 E.02893
G1 X30.536 Y83.762 E.07301
G1 X30.407 Y82.711 E.09626
G1 X30.471 Y81.709 E.09135
G1 X30.728 Y80.693 E.09528
G1 X30.848 Y80.391 E.02958
G1 X31.272 Y79.58 E.0832
G1 X31.455 Y79.306 E.02997
G1 X31.974 Y78.682 E.07377
G1 X32.198 Y78.461 E.02862
G1 X32.831 Y77.955 E.07371
G1 X33.798 Y77.421 E.10041
G1 X34.811 Y77.097 E.09674
G1 X35.853 Y76.971 E.09541
G1 X36.9 Y77.043 E.09545
G1 X37.031 Y77.077 E.01224
G1 X36.94 Y77.692 F7800
G1 F1800
G1 X37.79 Y77.927 E.08023
G1 X38.703 Y78.395 E.09327
G1 X39.517 Y79.057 E.09543
G1 X40.071 Y79.714 E.07809
G1 X40.564 Y80.598 E.09209
G1 X40.865 Y81.544 E.0903
G1 X40.971 Y82.476 E.08528
G1 X40.907 Y83.364 E.08096
G1 X40.67 Y84.267 E.08486
G1 X40.174 Y85.259 E.10087
G1 X39.546 Y86.047 E.09167
G1 X38.778 Y86.687 E.09081
G1 X37.916 Y87.152 E.08911
G1 X37.014 Y87.431 E.0858
G1 X36.088 Y87.535 E.08475
G1 X35.158 Y87.464 E.0848
G1 X34.21 Y87.201 E.08946
G1 X33.297 Y86.734 E.09327
G1 X32.483 Y86.072 E.09543
G1 X31.929 Y85.415 E.07809
G1 X31.436 Y84.531 E.09209
G1 X31.135 Y83.584 E.0903
M73 Q0 S157
G1 X31.029 Y82.653 E.08528
G1 X31.093 Y81.765 E.08096
G1 X31.33 Y80.862 E.08486
G1 X31.826 Y79.87 E.10087
G1 X32.454 Y79.081 E.09167
G1 X33.222 Y78.442 E.09081
G1 X34.084 Y77.977 E.08911
G1 X34.985 Y77.698 E.08578
G1 X35.912 Y77.593 E.08478
G1 X36.882 Y77.676 E.0885
G1 X36.839 Y78.303 F7800
;TYPE:External perimeter
G1 F1800
G1 X37.612 Y78.527 E.07323
G1 X38.407 Y78.946 E.08174
G1 X39.113 Y79.534 E.08355
G1 X39.586 Y80.108 E.06757
G1 X40.014 Y80.893 E.08135
G1 X40.266 Y81.722 E.07877
G1 X40.349 Y82.535 E.0743
G1 X40.285 Y83.308 E.07057
G1 X40.069 Y84.098 E.07444
G1 X39.62 Y84.969 E.08909
G1 X39.065 Y85.648 E.07974
G1 X38.387 Y86.199 E.07941
G1 X37.629 Y86.596 E.07783
G1 X36.84 Y86.831 E.07485
G1 X36.029 Y86.913 E.07413
G1 X35.217 Y86.842 E.07415
G1 X34.388 Y86.602 E.07849
G1 X33.592 Y86.183 E.08174
G1 X32.887 Y85.595 E.08355
G1 X32.414 Y85.021 E.06758
G1 X31.986 Y84.235 E.08135
G1 X31.734 Y83.407 E.07877
G1 X31.651 Y82.594 E.0743
G1 X31.715 Y81.82 E.07057
G1 X31.931 Y81.031 E.07444
G1 X32.38 Y80.16 E.08909
G1 X32.935 Y79.481 E.07974
G1 X33.613 Y78.93 E.07941
G1 X34.371 Y78.532 E.07783
G1 X35.159 Y78.298 E.07483
G1 X35.971 Y78.216 E.07415
G1 X36.781 Y78.287 E.07395
G1 X37.1 Y78 F7800
;WIPE_START
G1 F6240
G1 X37.612 Y78.527 E-.27666
G1 X38.407 Y78.946 E-.2874
G1 X39.113 Y79.534 E-.29377
G1 X39.586 Y80.108 E-.23759
G1 X40.014 Y80.893 E-.28602
G1 X40.266 Y81.722 E-.27696
G1 X40.343 Y82.474 E-.2416
;WIPE_END
G1 E-.1 F2100
G1 X19.09 Y153.742 F7800
G1 E2 F2100
;TYPE:Perimeter
G1 F1800
G1 X18.924 Y153.307 E.04226
G1 X18.9 Y153.038 E.02464
G1 X18.9 Y102.962 E4.55331
G1 X18.963 Y102.525 E.04018
G1 X19.136 Y102.137 E.03863
G1 X19.385 Y101.831 E.03587
G1 X19.669 Y101.617 E.03239
G1 X19.956 Y101.485 E.02868
G1 X20.462 Y101.4 E.04671
G1 X50.538 Y101.4 E2.73472
G1 X51.044 Y101.485 E.04671
G1 X51.331 Y101.617 E.02868
G1 X51.615 Y101.831 E.03239
G1 X51.864 Y102.137 E.03587
G1 X52.037 Y102.525 E.03863
G1 X52.1 Y102.962 E.04018
G1 X52.1 Y153.038 E4.55331
G1 X52.037 Y153.475 E.04018
G1 X51.864 Y153.863 E.03863
G1 X51.615 Y154.169 E.03587
G1 X51.331 Y154.383 E.03239
G1 X51.044 Y154.515 E.02868
G1 X50.538 Y154.6 E.04671
G1 X20.462 Y154.6 E2.73472
G1 X19.956 Y154.515 E.04671
G1 X19.669 Y154.383 E.02867
G1 X19.385 Y154.169 E.03239
G1 X19.136 Y153.863 E.03587
G1 X19.111 Y153.798 E.00636
G1 X19.643 Y153.472 F7800
G1 F1800
G1 X19.539 Y153.2 E.02653
G1 X19.525 Y153.038 E.01478
G1 X19.525 Y102.962 E4.55331
G1 X19.563 Y102.7 E.02411
G1 X19.667 Y102.467 E.02318
G1 X19.816 Y102.284 E.02152
G1 X20.158 Y102.076 E.03643
G1 X20.462 Y102.025 E.02802
G1 X50.538 Y102.025 E2.73472
G1 X50.842 Y102.076 E.02802
G1 X51.184 Y102.284 E.03643
G1 X51.333 Y102.467 E.02152
G1 X51.437 Y102.7 E.02318
G1 X51.475 Y102.962 E.02411
G1 X51.475 Y153.038 E4.55331
G1 X51.437 Y153.3 E.02411
G1 X51.333 Y153.533 E.02318
G1 X51.184 Y153.716 E.02152
G1 X50.842 Y153.924 E.03643
G1 X50.538 Y153.975 E.02802
G1 X20.462 Y153.975 E2.73472
G1 X20.158 Y153.924 E.02802
G1 X19.816 Y153.716 E.03643
G1 X19.665 Y153.528 E.02195
G1 X20.197 Y153.203 F7800
;TYPE:External perimeter
G1 F1800
G1 X20.15 Y153.038 E.01561
G1 X20.15 Y102.962 E4.55331
G1 X20.197 Y102.797 E.01561
G1 X20.361 Y102.667 E.01905
G1 X20.462 Y102.65 E.00934
G1 X50.538 Y102.65 E2.73472
G1 X50.696 Y102.693 E.01495
G1 X50.803 Y102.797 E.01355
G1 X50.85 Y102.962 E.01561
G1 X50.85 Y153.038 E4.55331
G1 X50.803 Y153.203 E.01561
G1 X50.639 Y153.333 E.01905
G1 X50.538 Y153.35 E.00934
G1 X20.462 Y153.35 E2.73472
G1 X20.304 Y153.307 E.01495
G1 X20.24 Y153.245 E.0081
G1 X20.025 Y153.205 F7800
;WIPE_START
G1 F6240
G1 X20.15 Y153.038 E-.07217
G1 X20.15 Y147.32 E-1.82783
;WIPE_END
G1 E-.1 F2100
G1 X54.213 Y41.051 F7800
G1 E2 F2100
;TYPE:Solid infill
;WIDTH:0.700253
G1 F1800
G1 X53.23 Y40.068 E.1264
G1 X52.346 Y40.068 E.08042
G1 X53.932 Y41.654 E.20395
G1 X53.932 Y42.538 E.08042
G1 X51.462 Y40.068 E.31769
G1 X50.578 Y40.068 E.08042
G1 X53.932 Y43.422 E.43142
G1 X53.932 Y44.306 E.08042
G1 X49.694 Y40.068 E.54516
G1 X48.81 Y40.068 E.08042
G1 X53.932 Y45.19 E.65889
G1 X53.932 Y46.074 E.08042
G1 X47.926 Y40.068 E.77262
G1 X47.042 Y40.068 E.08042
G1 X53.932 Y46.958 E.88636
G1 X53.932 Y47.842 E.08042
G1 X46.158 Y40.068 E1.00009
G1 X45.273 Y40.068 E.08042
G1 X53.932 Y48.726 E1.11382
G1 X53.932 Y49.611 E.08042
G1 X44.389 Y40.068 E1.22756
G1 X43.505 Y40.068 E.08042
G1 X53.932 Y50.495 E1.34129
G1 X53.932 Y51.379 E.08042
G1 X42.621 Y40.068 E1.45503
M73 Q1 S157
G1 X41.737 Y40.068 E.08042
G1 X53.932 Y52.263 E1.56876
G1 X53.932 Y53.147 E.08042
M73 P1 R157
G1 X40.853 Y40.068 E1.68249
G1 X39.969 Y40.068 E.08042
G1 X53.932 Y54.031 E1.79623
G1 X53.932 Y54.915 E.08042
G1 X39.085 Y40.068 E1.90996
G1 X38.201 Y40.068 E.08042
G1 X53.932 Y55.799 E2.02369
G1 X53.932 Y56.683 E.08042
G1 X37.317 Y40.068 E2.13743
G1 X36.433 Y40.068 E.08042
G1 X53.932 Y57.567 E2.25116
G1 X53.932 Y58.451 E.08042
G1 X35.549 Y40.068 E2.3649
G1 X34.664 Y40.068 E.08042
G1 X53.932 Y59.336 E2.47863
G1 X53.932 Y60.22 E.08042
G1 X33.78 Y40.068 E2.59236
G1 X32.896 Y40.068 E.08042
G1 X53.932 Y61.104 E2.7061
G1 X53.932 Y61.988 E.08042
G1 X32.012 Y40.068 E2.81983
G1 X31.128 Y40.068 E.08042
M73 P1 R156
G1 X53.932 Y62.872 E2.93356
G1 X53.932 Y63.756 E.08042
G1 X30.244 Y40.068 E3.0473
G1 X29.36 Y40.068 E.08042
G1 X53.932 Y64.64 E3.16103
G1 X53.932 Y65.524 E.08042
G1 X28.476 Y40.068 E3.27477
G1 X27.592 Y40.068 E.08042
G1 X53.932 Y66.408 E3.3885
G1 X53.932 Y67.292 E.08042
G1 X26.708 Y40.068 E3.50223
G1 X25.824 Y40.068 E.08042
G1 X53.932 Y68.176 E3.61597
G1 X53.932 Y69.06 E.08042
G1 X24.94 Y40.068 E3.7297
G1 X24.055 Y40.068 E.08042
G1 X53.932 Y69.945 E3.84343
G1 X53.932 Y70.829 E.08042
G1 X23.171 Y40.068 E3.95717
G1 X22.287 Y40.068 E.08042
G1 X53.932 Y71.713 E4.0709
G1 X53.932 Y72.597 E.08042
G1 X21.403 Y40.068 E4.18464
G1 X20.519 Y40.068 E.08042
G1 X53.932 Y73.481 E4.29837
G1 X53.932 Y74.365 E.08042
G1 X19.635 Y40.068 E4.4121
G1 X18.751 Y40.068 E.08042
G1 X53.932 Y75.249 E4.52584
G1 X53.932 Y76.133 E.08042
G1 X17.867 Y40.068 E4.63957
G1 X17.068 Y40.068 E.07263
G1 X17.068 Y40.154 E.00779
G1 X53.932 Y77.017 E4.74229
G1 X53.932 Y77.901 E.08042
M73 Q1 S156
G1 X17.068 Y41.038 E4.74229
G1 X17.068 Y41.922 E.08042
G1 X53.932 Y78.785 E4.74229
G1 X53.932 Y79.669 E.08042
G1 X17.068 Y42.806 E4.74229
G1 X17.068 Y43.69 E.08042
G1 X53.932 Y80.554 E4.74229
G1 X53.932 Y81.438 E.08042
G1 X17.068 Y44.574 E4.74229
G1 X17.068 Y45.459 E.08042
G1 X53.932 Y82.322 E4.74229
G1 X53.932 Y83.206 E.08042
G1 X17.068 Y46.343 E4.74229
G1 X17.068 Y47.227 E.08042
G1 X53.932 Y84.09 E4.74229
G1 X53.932 Y84.974 E.08042
G1 X17.068 Y48.111 E4.74229
G1 X17.068 Y48.995 E.08042
G1 X53.932 Y85.858 E4.74229
G1 X53.932 Y86.742 E.08042
G1 X17.068 Y49.879 E4.74229
G1 X17.068 Y50.763 E.08042
G1 X53.932 Y87.626 E4.74229
G1 X53.932 Y88.51 E.08042
G1 X17.068 Y51.647 E4.74229
G1 X17.068 Y52.531 E.08042
G1 X53.932 Y89.394 E4.74229
G1 X53.932 Y90.278 E.08042
G1 X17.068 Y53.415 E4.74229
G1 X17.068 Y54.299 E.08042
G1 X53.932 Y91.163 E4.74229
G1 X53.932 Y92.047 E.08042
G1 X17.068 Y55.183 E4.74229
G1 X17.068 Y56.068 E.08042
G1 X37.791 Y76.79 E2.66592
G1 X37.132 Y76.602 E.06234
G1 X36.671 Y76.554 E.04218
G1 X17.068 Y56.952 E2.52181
G1 X17.068 Y57.836 E.08042
G1 X35.747 Y76.515 E2.40296
G1 X34.943 Y76.594 E.07355
G1 X17.068 Y58.72 E2.29945
G1 X17.068 Y59.604 E.08042
G1 X34.242 Y76.777 E2.20931
M73 P1 R155
G1 X33.944 Y76.861 E.02811
G1 X33.587 Y77.007 E.03509
G1 X17.068 Y60.488 E2.1251
G1 X17.068 Y61.372 E.08042
G1 X33.002 Y77.305 E2.04975
G1 X32.65 Y77.505 E.03676
G1 X32.464 Y77.652 E.02158
G1 X17.068 Y62.256 E1.98064
G1 X17.068 Y63.14 E.08042
G1 X31.971 Y78.043 E1.91722
G1 X31.707 Y78.277 E.03212
G1 X31.531 Y78.487 E.0249
G1 X17.068 Y64.024 E1.86054
G1 X17.068 Y64.908 E.08042
G1 X31.127 Y78.967 E1.80864
G1 X30.929 Y79.236 E.03038
G1 X30.787 Y79.511 E.02815
G1 X17.068 Y65.792 E1.7648
G1 X17.068 Y66.677 E.08042
G1 X30.485 Y80.093 E1.72598
G1 X30.345 Y80.364 E.02774
G1 X30.24 Y80.733 E.03485
G1 X17.068 Y67.561 E1.6945
G1 X17.068 Y68.445 E.08042
G1 X30.045 Y81.422 E1.66941
G1 X29.962 Y82.222 E.07324
G1 X17.068 Y69.329 E1.65869
G1 X17.068 Y70.213 E.08042
G1 X29.984 Y83.129 E1.66155
G1 X30.039 Y83.705 E.05268
G1 X30.193 Y84.221 E.04899
G1 X16.787 Y70.816 E1.72455
;WIPE_START
G1 F6240
G1 X20.989 Y75.018 E-1.9
;WIPE_END
G1 E-.1 F2100
G1 X54.213 Y93.212 F7800
G1 E2 F2100
G1 F1800
G1 X41.765 Y80.764 E1.60141
G1 X41.961 Y81.424 E.06265
G1 X42.005 Y81.888 E.04247
G1 X53.932 Y93.815 E1.53427
G1 X53.932 Y94.699 E.08042
G1 X42.046 Y82.814 E1.52898
G1 X41.974 Y83.625 E.07409
G1 X53.932 Y95.583 E1.53835
G1 X53.932 Y96.467 E.08042
G1 X41.782 Y84.318 E1.56299
G1 X41.655 Y84.765 E.04234
G1 X41.549 Y84.968 E.02086
G1 X53.932 Y97.351 E1.59299
G1 X53.932 Y98.235 E.08042
G1 X41.245 Y85.548 E1.63211
G1 X41.033 Y85.953 E.04156
G1 X40.913 Y86.1 E.01728
G1 X53.932 Y99.119 E1.67483
G1 X53.932 Y100.003 E.08042
G1 X40.516 Y86.588 E1.72588
G1 X40.221 Y86.923 E.0406
G1 X40.08 Y87.036 E.01645
G1 X53.932 Y100.887 E1.78195
G1 X53.932 Y101.772 E.08042
G1 X39.588 Y87.428 E1.84522
G1 X39.3 Y87.658 E.03351
G1 X39.059 Y87.783 E.02474
G1 X53.932 Y102.656 E1.91336
G1 X53.932 Y103.54 E.08042
G1 X38.475 Y88.084 E1.98836
G1 X38.24 Y88.205 E.02415
G1 X37.832 Y88.324 E.03863
G1 X50.439 Y100.932 E1.62192
G1 X49.555 Y100.932 E.08042
G1 X37.147 Y88.523 E1.59632
G1 X36.341 Y88.601 E.07363
G1 X48.671 Y100.932 E1.58622
G1 X47.787 Y100.932 E.08042
G1 X35.436 Y88.58 E1.58897
G1 X34.859 Y88.525 E.05265
G1 X34.343 Y88.372 E.04899
G1 X46.903 Y100.932 E1.61577
G1 X46.019 Y100.932 E.08042
G1 X17.068 Y71.981 E3.72436
G1 X17.068 Y72.865 E.08042
G1 X45.135 Y100.932 E3.61063
G1 X44.251 Y100.932 E.08042
M73 Q2 S156
G1 X17.068 Y73.749 E3.49689
M73 Q2 S155
G1 X17.068 Y74.633 E.08042
M73 P2 R155
G1 X43.367 Y100.932 E3.38316
G1 X42.483 Y100.932 E.08042
G1 X17.068 Y75.517 E3.26943
G1 X17.068 Y76.401 E.08042
G1 X41.598 Y100.932 E3.15569
G1 X40.714 Y100.932 E.08042
G1 X17.068 Y77.286 E3.04196
G1 X17.068 Y78.17 E.08042
G1 X39.83 Y100.932 E2.92822
G1 X38.946 Y100.932 E.08042
G1 X17.068 Y79.054 E2.81449
G1 X17.068 Y79.938 E.08042
G1 X38.062 Y100.932 E2.70076
G1 X37.178 Y100.932 E.08042
G1 X17.068 Y80.822 E2.58702
G1 X17.068 Y81.706 E.08042
G1 X36.294 Y100.932 E2.47329
G1 X35.41 Y100.932 E.08042
G1 X17.068 Y82.59 E2.35956
G1 X17.068 Y83.474 E.08042
G1 X34.526 Y100.932 E2.24582
G1 X33.642 Y100.932 E.08042
G1 X17.068 Y84.358 E2.13209
G1 X17.068 Y85.242 E.08042
G1 X32.758 Y100.932 E2.01835
G1 X31.874 Y100.932 E.08042
G1 X17.068 Y86.126 E1.90462
G1 X17.068 Y87.011 E.08042
G1 X30.989 Y100.932 E1.79089
G1 X30.105 Y100.932 E.08042
G1 X17.068 Y87.895 E1.67715
G1 X17.068 Y88.779 E.08042
G1 X29.221 Y100.932 E1.56342
G1 X28.337 Y100.932 E.08042
G1 X17.068 Y89.663 E1.44969
G1 X17.068 Y90.547 E.08042
G1 X27.453 Y100.932 E1.33595
G1 X26.569 Y100.932 E.08042
G1 X17.068 Y91.431 E1.22222
G1 X17.068 Y92.315 E.08042
G1 X25.685 Y100.932 E1.10848
G1 X24.801 Y100.932 E.08042
G1 X17.068 Y93.199 E.99475
G1 X17.068 Y94.083 E.08042
G1 X23.917 Y100.932 E.88102
G1 X23.033 Y100.932 E.08042
G1 X17.068 Y94.967 E.76728
G1 X17.068 Y95.851 E.08042
G1 X22.149 Y100.932 E.65355
