; generated by PrusaSlicer 2.5.0+MacOS-arm64 on 2023-03-03 at 10:05:16 UTC


;
;
; 

; external perimeters extrusion width = 0.45mm
; perimeters extrusion width = 0.45mm
; infill extrusion width = 0.45mm
; solid infill extrusion width = 0.45mm
; top infill extrusion width = 0.40mm
; first layer extrusion width = 0.70mm

M73 P0 R137
M73 Q0 S138
M201 X1000 Y1000 Z200 E5000 ; sets maximum accelerations, mm/sec^2
M203 X200 Y200 Z12 E120 ; sets maximum feedrates, mm / sec
M204 P1250 R1250 T1250 ; sets acceleration (P, T) and retract acceleration (R), mm/sec^2
M205 X8.00 Y8.00 Z0.40 E4.50 ; sets the jerk limits, mm/sec
M205 S0 T0 ; sets the minimum extruding and travel feed rate, mm/sec
M107
;TYPE:Custom
M862.3 P "MK3S" ; printer model check
M862.1 P0.4 ; nozzle diameter check
M115 U3.12.1 ; tell printer latest fw version
G90 ; use absolute coordinates
M83 ; extruder relative mode
M104 S205 ; set extruder temp
M140 S65 ; set bed temp
M190 S65 ; wait for bed temp
M109 S205 ; wait for extruder temp
G28 W ; home all without mesh bed level
G80 ; mesh bed leveling

G1 Z0.2 F720
G1 Y-3 F1000 ; go outside print area
G92 E0
G1 X60 E9 F1000 ; intro line
G1 X100 E12.5 F1000 ; intro line

G92 E0
M221 S95

; Don't change E values below. Excessive value can damage the printer.

G21 ; set units to millimeters
G90 ; use absolute coordinates
M83 ; use relative distances for extrusion
M900 K0.05 ; Filament gcode LA 1.5
M900 K30 ; Filament gcode LA 1.0
M107
;LAYER_CHANGE
;Z:0.35
;HEIGHT:0.35
;BEFORE_LAYER_CHANGE
G92 E0.0
;0.35


G1 E-2 F2100
G1 Z.35 F7800
;AFTER_LAYER_CHANGE
;0.35
G1 X11.864 Y32.202
G1 E2 F2100
;TYPE:Skirt/Brim
;WIDTH:0.7
G1 F1800
G1 X13.82 Y31.481 E.18953
G1 X15 Y31.375 E.10771
G1 X235 Y31.375 E20.00451
G1 X237.259 Y31.772 E.20854
G1 X239.247 Y32.915 E.20854
G1 X240.726 Y34.668 E.20854
G1 X241.519 Y36.82 E.20854
G1 X241.625 Y38 E.10771
G1 X241.625 Y172 E12.18456
G1 X241.228 Y174.259 E.20854
G1 X240.085 Y176.247 E.20854
G1 X238.332 Y177.726 E.20854
G1 X236.18 Y178.519 E.20854
G1 X235 Y178.625 E.10771
G1 X15 Y178.625 E20.00451
G1 X12.741 Y178.228 E.20854
M73 Q0 S137
G1 X10.753 Y177.085 E.20854
G1 X9.274 Y175.332 E.20854
G1 X8.481 Y173.18 E.20854
G1 X8.375 Y172 E.10771
G1 X8.375 Y38 E12.18456
G1 X8.772 Y35.741 E.20854
M73 P0 R136
G1 X9.915 Y33.753 E.20854
G1 X11.668 Y32.274 E.20854
G1 X11.808 Y32.222 E.01356
;WIPE_START
G1 F6240
G1 X13.82 Y31.481 E-.68556
G1 X15 Y31.375 E-.37871
G1 X17.614 Y31.375 E-.83573
;WIPE_END
G1 E-.1 F2100
G1 X190.07 Y170.4 F7800
G1 E2 F2100
;TYPE:Perimeter
;WIDTH:0.7
G1 F1800
G1 X16.6 Y170.4 E15.77355
G1 X16.6 Y39.6 E11.89362
G1 X19.198 Y39.6 E.23627
;WIDTH:0.734214
G1 X19.339 Y39.617 E.01361
;WIDTH:0.768428
G1 X19.48 Y39.634 E.01432
;WIDTH:0.802643
G1 X19.621 Y39.651 E.01502
G1 X19.962 Y39.644 E.03618
;WIDTH:0.787774
G1 X31.038 Y39.644 E1.14851
G1 X31.43 Y39.622 E.04077
;WIDTH:0.743887
G1 X31.823 Y39.6 E.03825
;WIDTH:0.7
G1 X178.177 Y39.6 E13.30799
;WIDTH:0.734214
G1 X178.325 Y39.617 E.01427
;WIDTH:0.768428
G1 X178.473 Y39.634 E.01501
;WIDTH:0.802643
G1 X178.621 Y39.651 E.01575
G1 X178.962 Y39.644 E.03618
;WIDTH:0.787774
G1 X190.038 Y39.644 E1.14851
G1 X190.43 Y39.622 E.04077
;WIDTH:0.743887
G1 X190.823 Y39.6 E.03825
;WIDTH:0.7
G1 X233.4 Y39.6 E3.87157
G1 X233.4 Y170.4 E11.89362
G1 X190.13 Y170.4 E3.93456
;WIPE_START
G1 F6240
G1 X184.187 Y170.4 E-1.9
;WIPE_END
G1 E-.1 F2100
G1 X234.025 Y171.025 F7800
G1 E2 F2100
G1 F1800
G1 X15.975 Y171.025 E19.8272
G1 X15.975 Y38.975 E12.00726
G1 X234.025 Y38.975 E19.8272
G1 X234.025 Y170.965 E12.00181
G1 X234.65 Y171.65 F7800
;TYPE:External perimeter
G1 F1800
G1 X15.35 Y171.65 E19.94085
G1 X15.35 Y38.35 E12.12091
M73 P1 R135
M73 Q1 S136
G1 X234.65 Y38.35 E19.94085
G1 X234.65 Y171.59 E12.11545
G1 X234.257 Y171.578 F7800
;WIPE_START
G1 F6240
G1 X228.707 Y171.592 E-1.9
;WIPE_END
G1 E-.1 F2100
G1 X190.227 Y168.568 F7800
G1 E2 F2100
;TYPE:Perimeter
G1 F1800
G1 X190.038 Y168.6 E.01747
G1 X178.962 Y168.6 E1.00705
G1 X178.456 Y168.515 E.04671
G1 X178.025 Y168.287 E.04431
G1 X177.713 Y167.975 E.04018
G1 X177.52 Y167.638 E.03524
G1 X177.426 Y167.319 E.03027
G1 X177.4 Y167.038 E.02572
G1 X177.4 Y160.568 E.58829
G1 X32.6 Y160.568 E13.16664
G1 X32.6 Y167.038 E.58829
G1 X32.574 Y167.319 E.02572
G1 X32.48 Y167.638 E.03027
G1 X32.287 Y167.975 E.03524
G1 X31.975 Y168.287 E.04018
G1 X31.544 Y168.515 E.04431
G1 X31.038 Y168.6 E.04671
G1 X19.962 Y168.6 E1.00705
G1 X19.539 Y168.541 E.03886
G1 X19.161 Y168.378 E.03746
G1 X18.858 Y168.142 E.03493
G1 X18.622 Y167.839 E.03493
G1 X18.424 Y167.307 E.05159
G1 X18.4 Y167.038 E.02464
G1 X18.4 Y41.962 E11.37302
G1 X18.453 Y41.559 E.03697
G1 X18.602 Y41.195 E.03576
G1 X18.906 Y40.812 E.04451
G1 X19.376 Y40.514 E.0506
;WIDTH:0.734214
G1 X19.479 Y40.467 E.01081
;WIDTH:0.768428
G1 X19.581 Y40.42 E.01138
;WIDTH:0.802643
G1 X19.684 Y40.373 E.01194
G1 X19.962 Y40.356 E.02957
;WIDTH:0.787774
G1 X31.038 Y40.356 E1.14851
G1 X31.338 Y40.438 E.0323
;WIDTH:0.743887
G1 X31.638 Y40.52 E.03031
;WIDTH:0.7
G1 X32.115 Y40.831 E.05173
G1 X32.416 Y41.227 E.04524
G1 X32.562 Y41.62 E.03805
G1 X32.6 Y41.962 E.03137
G1 X32.6 Y49.4 E.67631
G1 X177.4 Y49.4 E13.16664
G1 X177.4 Y41.962 E.67631
G1 X177.438 Y41.62 E.03137
G1 X177.584 Y41.227 E.03805
G1 X177.885 Y40.831 E.04524
G1 X178.362 Y40.52 E.05173
;WIDTH:0.734214
G1 X178.469 Y40.471 E.01132
;WIDTH:0.768428
G1 X178.576 Y40.422 E.01191
;WIDTH:0.802643
G1 X178.684 Y40.373 E.0125
G1 X178.962 Y40.356 E.02957
;WIDTH:0.787774
G1 X190.038 Y40.356 E1.14851
G1 X190.338 Y40.438 E.0323
;WIDTH:0.743887
G1 X190.638 Y40.52 E.03031
;WIDTH:0.7
G1 X191.115 Y40.831 E.05173
G1 X191.416 Y41.227 E.04524
G1 X191.562 Y41.62 E.03805
G1 X191.6 Y41.962 E.03137
G1 X191.6 Y167.038 E11.37302
G1 X191.574 Y167.319 E.02572
G1 X191.48 Y167.638 E.03027
G1 X191.287 Y167.975 E.03524
G1 X190.975 Y168.287 E.04018
G1 X190.544 Y168.515 E.04431
G1 X190.286 Y168.558 E.02378
G1 X190.091 Y167.97 F7800
G1 F1800
G1 X178.962 Y167.975 E1.01193
G1 X178.658 Y167.924 E.02802
G1 X178.4 Y167.787 E.02659
G1 X178.213 Y167.6 E.02411
G1 X178.04 Y167.207 E.03904
G1 X178.025 Y167.038 E.01543
G1 X178.025 Y159.943 E.64511
G1 X31.975 Y159.943 E13.28028
G1 X31.975 Y167.038 E.64511
G1 X31.903 Y167.398 E.03343
G1 X31.787 Y167.6 E.02114
G1 X31.6 Y167.787 E.02411
G1 X31.2 Y167.961 E.03968
G1 X31.038 Y167.975 E.01478
G1 X19.962 Y167.975 E1.00705
G1 X19.708 Y167.94 E.02331
G1 X19.481 Y167.842 E.02247
G1 X19.3 Y167.7 E.02096
G1 X19.158 Y167.519 E.02096
G1 X19.039 Y167.2 E.03095
G1 X19.025 Y167.038 E.01478
G1 X19.025 Y41.962 E11.37302
G1 X19.057 Y41.721 E.02218
G1 X19.146 Y41.502 E.02146
G1 X19.329 Y41.272 E.02671
G1 X19.611 Y41.094 E.03036
G1 X19.962 Y41.025 E.03258
G1 X31.038 Y41.025 E1.00705
G1 X31.398 Y41.097 E.03343
G1 X31.684 Y41.284 E.03104
G1 X31.865 Y41.521 E.02714
G1 X31.952 Y41.757 E.02283
G1 X31.975 Y41.962 E.01882
G1 X31.975 Y50.025 E.73313
G1 X178.025 Y50.025 E13.28028
G1 X178.025 Y41.962 E.73313
G1 X178.048 Y41.757 E.01882
G1 X178.135 Y41.521 E.02283
G1 X178.316 Y41.284 E.02714
G1 X178.602 Y41.097 E.03104
G1 X178.962 Y41.025 E.03343
G1 X190.038 Y41.025 E1.00705
G1 X190.398 Y41.097 E.03343
G1 X190.684 Y41.284 E.03104
G1 X190.865 Y41.521 E.02714
G1 X190.952 Y41.757 E.02283
G1 X190.975 Y41.962 E.01882
G1 X190.975 Y167.038 E11.37302
G1 X190.903 Y167.398 E.03343
M73 Q1 S135
G1 X190.787 Y167.6 E.02114
G1 X190.6 Y167.787 E.02411
G1 X190.2 Y167.961 E.03968
G1 X190.151 Y167.965 E.00443
G1 X190.056 Y167.347 F7800
;TYPE:External perimeter
G1 F1800
G1 X178.962 Y167.35 E1.00876
G1 X178.775 Y167.288 E.01797
M73 P1 R134
G1 X178.674 Y167.158 E.01495
G1 X178.65 Y167.038 E.01114
G1 X178.65 Y159.318 E.70194
G1 X31.35 Y159.318 E13.39392
G1 X31.35 Y167.038 E.70194
G1 X31.288 Y167.225 E.01797
G1 X31.139 Y167.333 E.01671
G1 X31.038 Y167.35 E.00934
G1 X19.962 Y167.35 E1.00705
G1 X19.802 Y167.306 E.01512
G1 X19.694 Y167.198 E.01387
G1 X19.65 Y167.038 E.01512
G1 X19.65 Y41.962 E11.37302
G1 X19.69 Y41.809 E.01443
G1 X19.845 Y41.673 E.01875
G1 X19.962 Y41.65 E.01086
G1 X31.038 Y41.65 E1.00705
G1 X31.253 Y41.736 E.0211
G1 X31.342 Y41.894 E.01648
G1 X31.35 Y41.962 E.00627
G1 X31.35 Y50.65 E.78996
G1 X178.65 Y50.65 E13.39392
G1 X178.65 Y41.962 E.78996
G1 X178.687 Y41.815 E.01378
G1 X178.842 Y41.674 E.01911
G1 X178.962 Y41.65 E.01114
G1 X190.038 Y41.65 E1.00705
G1 X190.253 Y41.736 E.0211
M73 P2 R134
G1 X190.342 Y41.894 E.01648
G1 X190.35 Y41.962 E.00627
G1 X190.35 Y167.038 E11.37302
G1 X190.288 Y167.225 E.01797
M73 Q2 S135
G1 X190.115 Y167.337 E.01866
G1 X189.956 Y167.734 F7800
;WIPE_START
G1 F6240
G1 X184.173 Y167.344 E-1.9
;WIPE_END
G1 E-.1 F2100
G1 X229.732 Y55.433 F7800
G1 E2 F2100
;TYPE:Perimeter
G1 F1800
G1 X230.044 Y55.485 E.02878
G1 X230.331 Y55.617 E.02868
G1 X230.615 Y55.831 E.03239
G1 X230.864 Y56.137 E.03587
G1 X231.037 Y56.525 E.03863
G1 X231.1 Y56.962 E.04018
G1 X231.1 Y107.038 E4.55331
G1 X231.037 Y107.475 E.04018
G1 X230.864 Y107.863 E.03863
G1 X230.615 Y108.169 E.03587
G1 X230.331 Y108.383 E.03239
G1 X230.044 Y108.515 E.02867
G1 X229.538 Y108.6 E.04671
G1 X199.462 Y108.6 E2.73472
G1 X199.025 Y108.537 E.04018
G1 X198.693 Y108.397 E.03272
G1 X198.362 Y108.147 E.03775
G1 X198.084 Y107.773 E.0424
G1 X197.922 Y107.296 E.04578
G1 X197.9 Y107.038 E.02359
G1 X197.9 Y56.962 E4.55331
G1 X197.985 Y56.456 E.04671
G1 X198.213 Y56.025 E.04431
G1 X198.525 Y55.713 E.04018
G1 X198.862 Y55.52 E.03524
G1 X199.327 Y55.406 E.04356
G1 X199.5 Y55.4 E.01575
G1 X229.538 Y55.4 E2.7313
G1 X229.673 Y55.423 E.01247
G1 X229.635 Y56.041 F7800
G1 F1800
G1 X229.842 Y56.076 E.01908
G1 X230.184 Y56.284 E.03643
G1 X230.333 Y56.467 E.02152
G1 X230.437 Y56.7 E.02318
G1 X230.475 Y56.962 E.02411
G1 X230.475 Y107.038 E4.55331
G1 X230.437 Y107.3 E.02411
G1 X230.333 Y107.533 E.02318
G1 X230.184 Y107.716 E.02152
G1 X229.842 Y107.924 E.03643
G1 X229.538 Y107.975 E.02802
G1 X199.462 Y107.975 E2.73472
G1 X199.102 Y107.903 E.03343
G1 X198.802 Y107.703 E.03273
G1 X198.635 Y107.479 E.02544
G1 X198.538 Y107.193 E.02747
G1 X198.525 Y107.038 E.01416
G1 X198.525 Y56.962 E4.55331
G1 X198.576 Y56.658 E.02802
G1 X198.713 Y56.4 E.02659
G1 X199.001 Y56.147 E.03492
G1 X199.293 Y56.04 E.02828
G1 X199.5 Y56.025 E.01884
G1 X229.575 Y56.031 E2.73475
G1 X229.562 Y56.657 F7800
;TYPE:External perimeter
G1 F1800
G1 X229.696 Y56.693 E.01264
G1 X229.803 Y56.797 E.01355
G1 X229.85 Y56.962 E.01561
G1 X229.85 Y107.038 E4.55331
G1 X229.803 Y107.203 E.01561
G1 X229.639 Y107.333 E.01905
G1 X229.538 Y107.35 E.00934
G1 X199.462 Y107.35 E2.73472
G1 X199.275 Y107.288 E.01797
G1 X199.167 Y107.139 E.01671
G1 X199.15 Y107.038 E.00934
G1 X199.15 Y56.962 E4.55331
G1 X199.212 Y56.775 E.01797
G1 X199.375 Y56.662 E.01797
G1 X199.5 Y56.65 E.01143
G1 X229.503 Y56.65 E2.72816
G1 X229.652 Y56.551 F7800
;WIPE_START
G1 F6240
G1 X229.696 Y56.693 E-.06329
G1 X229.803 Y56.797 E-.04765
G1 X229.85 Y56.962 E-.05488
G1 X229.85 Y62.387 E-1.73417
;WIPE_END
G1 E-.1 F2100
G1 X210.054 Y131.396 F7800
G1 E2 F2100
;TYPE:Perimeter
G1 F1800
G1 X209.92 Y131.262 E.01729
G1 X209.416 Y130.642 E.07262
G1 X209.244 Y130.38 E.02849
G1 X208.865 Y129.654 E.0745
G1 X208.53 Y128.609 E.09972
G1 X208.407 Y127.579 E.09433
G1 X208.473 Y126.563 E.0926
G1 X208.741 Y125.528 E.09719
G1 X208.856 Y125.238 E.02844
G1 X209.242 Y124.494 E.07615
G1 X209.419 Y124.227 E.02917
G1 X209.942 Y123.586 E.07521
G1 X210.169 Y123.36 E.02912
G1 X210.811 Y122.839 E.07519
G1 X211.077 Y122.666 E.02881
G1 X211.796 Y122.294 E.07364
G1 X212.092 Y122.177 E.02898
G1 X212.873 Y121.958 E.07372
G1 X213.857 Y121.842 E.09012
G1 X214.883 Y121.911 E.09346
G1 X215.929 Y122.184 E.09837
G1 X216.944 Y122.68 E.10268
G1 X217.212 Y122.856 E.02915
G1 X217.858 Y123.387 E.07604
G1 X218.08 Y123.61 E.0286
G1 X218.584 Y124.23 E.07262
G1 X219.135 Y125.218 E.10289
G1 X219.47 Y126.262 E.09972
G1 X219.593 Y127.292 E.09432
G1 X219.527 Y128.308 E.09261
G1 X219.259 Y129.343 E.09719
G1 X218.758 Y130.377 E.10448
G1 X218.581 Y130.645 E.02917
G1 X218.058 Y131.285 E.07521
G1 X217.831 Y131.511 E.02912
G1 X217.189 Y132.032 E.07519
G1 X216.923 Y132.205 E.02881
G1 X216.204 Y132.577 E.07363
G1 X215.172 Y132.906 E.09856
G1 X214.144 Y133.029 E.09412
G1 X213.117 Y132.961 E.09355
G1 X212.071 Y132.687 E.09837
G1 X211.782 Y132.571 E.02828
G1 X211.056 Y132.192 E.0745
G1 X210.788 Y132.015 E.02915
G1 X210.096 Y131.439 E.08187
G1 X210.471 Y130.922 F7800
G1 F1800
G1 X209.901 Y130.248 E.08024
G1 X209.419 Y129.364 E.09152
G1 X209.13 Y128.435 E.08844
G1 X209.029 Y127.522 E.08358
G1 X209.096 Y126.62 E.08224
G1 X209.341 Y125.7 E.08658
G1 X209.797 Y124.783 E.09314
G1 X210.426 Y123.981 E.09263
G1 X211.205 Y123.325 E.09259
G1 X212.083 Y122.849 E.09086
G1 X213.042 Y122.56 E.09103
G1 X213.914 Y122.464 E.07984
G1 X214.825 Y122.533 E.08307
G1 X215.756 Y122.785 E.08763
G1 X216.655 Y123.234 E.09141
G1 X217.462 Y123.87 E.09346
G1 X218.099 Y124.624 E.08971
G1 X218.581 Y125.507 E.09152
G1 X218.87 Y126.436 E.08844
G1 X218.971 Y127.349 E.08358
G1 X218.904 Y128.251 E.08224
G1 X218.659 Y129.171 E.08658
G1 X218.203 Y130.089 E.09314
G1 X217.574 Y130.89 E.09264
G1 X216.795 Y131.546 E.09259
G1 X215.917 Y132.022 E.09085
G1 X214.999 Y132.306 E.08741
G1 X214.086 Y132.407 E.08346
G1 X213.175 Y132.338 E.08312
G1 X212.244 Y132.087 E.08763
G1 X211.345 Y131.638 E.09141
G1 X210.509 Y130.968 E.0974
G1 X211.076 Y130.633 F7800
;TYPE:External perimeter
G1 F1800
G1 X210.934 Y130.518 E.01656
G1 X210.386 Y129.854 E.07831
G1 X209.972 Y129.075 E.08017
G1 X209.73 Y128.262 E.07717
G1 X209.651 Y127.464 E.07285
G1 X209.718 Y126.677 E.07188
G1 X209.942 Y125.872 E.07598
G1 X210.351 Y125.071 E.08181
G1 X210.91 Y124.376 E.08101
G1 X211.598 Y123.811 E.08099
G1 X212.37 Y123.404 E.07938
G1 X213.21 Y123.162 E.07949
G1 X213.971 Y123.087 E.06956
G1 X214.768 Y123.155 E.07268
G1 X215.582 Y123.385 E.0769
G1 X216.366 Y123.787 E.08014
G1 X217.066 Y124.353 E.08184
G1 X217.614 Y125.018 E.07831
G1 X218.028 Y125.796 E.08017
G1 X218.27 Y126.61 E.07717
G1 X218.349 Y127.407 E.07285
G1 X218.282 Y128.195 E.07188
G1 X218.058 Y128.999 E.07597
G1 X217.649 Y129.801 E.08181
G1 X217.09 Y130.495 E.08101
G1 X216.402 Y131.061 E.08099
G1 X215.63 Y131.467 E.07937
G1 X214.826 Y131.705 E.07627
G1 X214.029 Y131.784 E.07281
G1 X213.232 Y131.716 E.0727
G1 X212.418 Y131.486 E.0769
G1 X211.634 Y131.084 E.08014
G1 X211.122 Y130.67 E.05983
G1 X210.908 Y130.704 F7800
;WIPE_START
G1 F6240
G1 X210.934 Y130.518 E-.07742
G1 X210.386 Y129.854 E-.27535
G1 X209.972 Y129.075 E-.28188
G1 X209.73 Y128.262 E-.27133
G1 X209.651 Y127.464 E-.25615
G1 X209.718 Y126.677 E-.25274
G1 X209.942 Y125.872 E-.26713
G1 X210.252 Y125.265 E-.21799
;WIPE_END
G1 E-.1 F2100
G1 X231.947 Y39.787 F7800
G1 E2 F2100
;TYPE:Solid infill
;WIDTH:0.701001
G1 F1800
G1 X232.932 Y40.771 E.12675
G1 X232.932 Y41.656 E.08061
G1 X231.344 Y40.068 E.20454
G1 X230.458 Y40.068 E.08061
G1 X232.932 Y42.542 E.31855
G1 X232.932 Y43.427 E.08061
G1 X229.573 Y40.068 E.43255
G1 X228.688 Y40.068 E.08061
G1 X232.932 Y44.312 E.54656
G1 X232.932 Y45.197 E.08061
G1 X227.803 Y40.068 E.66056
G1 X226.918 Y40.068 E.08061
G1 X232.932 Y46.082 E.77457
G1 X232.932 Y46.967 E.08061
G1 X226.033 Y40.068 E.88858
G1 X225.148 Y40.068 E.08061
G1 X232.932 Y47.852 E1.00258
G1 X232.932 Y48.738 E.08061
G1 X224.262 Y40.068 E1.11659
G1 X223.377 Y40.068 E.08061
G1 X232.932 Y49.623 E1.23059
G1 X232.932 Y50.508 E.08061
G1 X222.492 Y40.068 E1.3446
G1 X221.607 Y40.068 E.08061
G1 X232.932 Y51.393 E1.45861
G1 X232.932 Y52.278 E.08061
G1 X220.722 Y40.068 E1.57261
G1 X219.837 Y40.068 E.08061
G1 X232.932 Y53.163 E1.68662
G1 X232.932 Y54.048 E.08061
G1 X218.952 Y40.068 E1.80062
G1 X218.066 Y40.068 E.08061
G1 X232.932 Y54.934 E1.91463
G1 X232.932 Y55.819 E.08061
G1 X217.181 Y40.068 E2.02864
G1 X216.296 Y40.068 E.08061
G1 X232.932 Y56.704 E2.14264
G1 X232.932 Y57.589 E.08061
G1 X215.411 Y40.068 E2.25665
G1 X214.526 Y40.068 E.08061
G1 X229.389 Y54.932 E1.91437
G1 X228.504 Y54.932 E.08061
G1 X213.641 Y40.068 E1.91437
G1 X212.756 Y40.068 E.08061
G1 X227.619 Y54.932 E1.91437
G1 X226.734 Y54.932 E.08061
G1 X211.87 Y40.068 E1.91437
G1 X210.985 Y40.068 E.08061
G1 X225.848 Y54.932 E1.91437
G1 X224.963 Y54.932 E.08061
G1 X210.1 Y40.068 E1.91437
