; generated by PrusaSlicer 2.5.0+MacOS-arm64 on 2023-03-01 at 15:15:37 UTC


;
;
; 

; external perimeters extrusion width = 0.60mm
; perimeters extrusion width = 0.50mm
; infill extrusion width = 0.50mm
; solid infill extrusion width = 0.50mm
; top infill extrusion width = 0.45mm
; first layer extrusion width = 0.42mm

M73 P0 R164
M73 Q0 S165
M201 X1000 Y1000 Z200 E5000 ; sets maximum accelerations, mm/sec^2
M203 X200 Y200 Z12 E120 ; sets maximum feedrates, mm / sec
M204 P1250 R1250 T1250 ; sets acceleration (P, T) and retract acceleration (R), mm/sec^2
M205 X8.00 Y8.00 Z0.40 E4.50 ; sets the jerk limits, mm/sec
M205 S0 T0 ; sets the minimum extruding and travel feed rate, mm/sec
M107
;TYPE:Custom
M862.3 P "MK3S" ; printer model check
M862.1 P0.4 ; nozzle diameter check
M115 U3.12.1 ; tell printer latest fw version
G90 ; use absolute coordinates
M83 ; extruder relative mode
M104 S215 ; set extruder temp
M140 S60 ; set bed temp
M190 S60 ; wait for bed temp
M109 S215 ; wait for extruder temp
G28 W ; home all without mesh bed level
G80 ; mesh bed leveling

G1 Z0.2 F720
G1 Y-3 F1000 ; go outside print area
G92 E0
G1 X60 E9 F1000 ; intro line
G1 X100 E12.5 F1000 ; intro line

G92 E0
M221 S95

; Don't change E values below. Excessive value can damage the printer.

M907 E538 ; set extruder motor current
G21 ; set units to millimeters
G90 ; use absolute coordinates
M83 ; use relative distances for extrusion
M900 K0.05 ; Filament gcode LA 1.5
M900 K30 ; Filament gcode LA 1.0
M107
;LAYER_CHANGE
;Z:0.2
;HEIGHT:0.2
;BEFORE_LAYER_CHANGE
G92 E0.0
;0.2


G1 E-.8 F2100
G1 Z.4 F720
;AFTER_LAYER_CHANGE
;0.2
G1 X14.06 Y25.317 F10800
G1 Z.2 F720
G1 E.8 F2100
M204 S800
;TYPE:Skirt/Brim
;WIDTH:0.42
G1 F1200
G1 X15 Y25.123 E.03008
G1 X235 Y25.123 E6.89795
G1 X236.307 Y25.514 E.04278
G1 X237.183 Y26.56 E.04278
G1 X237.377 Y27.5 E.03008
G1 X237.377 Y182.5 E4.85992
G1 X236.986 Y183.807 E.04278
G1 X235.94 Y184.683 E.04278
G1 X235 Y184.877 E.03008
G1 X15 Y184.877 E6.89795
G1 X13.693 Y184.486 E.04278
G1 X12.817 Y183.44 E.04278
G1 X12.623 Y182.5 E.03008
G1 X12.623 Y27.5 E4.85992
G1 X13.014 Y26.193 E.04278
G1 X14.014 Y25.355 E.0409
M204 S1000
; printing object holder2.stl id:0 copy 0
;WIPE_START
G1 F8640
G1 X15 Y25.123 E-.23384
G1 X17.279 Y25.123 E-.52616
;WIPE_END
G1 E-.04 F2100
G1 Z.6 F720
G1 X15.787 Y28.287 F10800
G1 Z.2 F720
G1 E.8 F2100
M204 S800
;TYPE:Perimeter
;WIDTH:0.419999
G1 F1200
G1 X234.213 Y28.287 E6.84858
G1 X234.213 Y181.713 E4.81055
M73 P0 R163
M73 Q0 S164
G1 X15.787 Y181.713 E6.84858
G1 X15.787 Y28.347 E4.80867
M204 S1000
G1 X15.41 Y27.91 F10800
M204 S800
;TYPE:External perimeter
G1 F1200
G1 X234.59 Y27.91 E6.87222
G1 X234.59 Y182.09 E4.8342
G1 X15.41 Y182.09 E6.87222
M73 P1 R163
M73 Q1 S164
G1 X15.41 Y27.97 E4.83232
M204 S1000
G1 X15.802 Y27.991 F10800
;WIPE_START
M73 P1 R162
M73 Q1 S163
G1 F8640
G1 X18.701 Y27.969 E-.76
;WIPE_END
G1 E-.04 F2100
G1 Z.6 F720
G1 X19.213 Y32.62 F10800
G1 Z.2 F720
G1 E.8 F2100
M204 S800
;TYPE:Perimeter
G1 F1200
G1 X19.213 Y32.279 E.01069
G1 X19.259 Y32.054 E.00719
G1 X19.379 Y31.879 E.00665
G1 X19.681 Y31.721 E.01068
G1 X19.779 Y31.713 E.00308
G1 X230.221 Y31.713 E6.59828
G1 X230.446 Y31.759 E.00719
G1 X230.621 Y31.879 E.00665
G1 X230.741 Y32.054 E.00665
G1 X230.787 Y32.279 E.00719
G1 X230.787 Y164.721 E4.15265
G1 X230.757 Y164.905 E.00583
G1 X230.561 Y165.174 E.01043
G1 X230.323 Y165.278 E.00812
G1 X230.221 Y165.287 E.00321
G1 X19.779 Y165.287 E6.59828
G1 X19.561 Y165.244 E.00696
G1 X19.326 Y165.061 E.00933
G1 X19.221 Y164.819 E.00826
G1 X19.213 Y164.721 E.00308
G1 X19.213 Y32.68 E4.14008
M204 S1000
G1 X19.59 Y32.279 F10800
M204 S800
;TYPE:External perimeter
G1 F1200
G1 X19.645 Y32.145 E.00452
G1 X19.779 Y32.09 E.00452
G1 X230.221 Y32.09 E6.59828
G1 X230.355 Y32.145 E.00452
G1 X230.41 Y32.279 E.00452
G1 X230.41 Y164.721 E4.15265
G1 X230.335 Y164.872 E.00529
G1 X230.221 Y164.91 E.00374
G1 X19.779 Y164.91 E6.59828
G1 X19.628 Y164.835 E.00529
M73 P1 R161
M73 Q1 S162
G1 X19.59 Y164.721 E.00374
G1 X19.59 Y32.339 E4.15077
M204 S1000
G1 X19.488 Y32.176 F10800
;WIPE_START
G1 F8640
G1 X19.645 Y32.145 E-.04642
G1 X19.779 Y32.09 E-.03332
G1 X22.725 Y32.09 E-.68026
;WIPE_END
G1 E-.04 F2100
G1 Z.6 F720
G1 X98.517 Y173.882 F10800
G1 Z.2 F720
G1 E.8 F2100
M204 S800
;TYPE:Perimeter
G1 F1200
G1 X98.182 Y174.547 E.02337
G1 X97.701 Y175.151 E.0242
G1 X97.11 Y175.643 E.02411
G1 X96.446 Y175.998 E.02361
G1 X95.751 Y176.211 E.0228
G1 X95.052 Y176.286 E.02201
G1 X94.354 Y176.23 E.02197
G1 X93.64 Y176.033 E.02321
G1 X92.952 Y175.683 E.0242
G1 X92.39 Y175.24 E.02243
G1 X91.883 Y174.645 E.02453
G1 X91.51 Y173.965 E.02431
G1 X91.29 Y173.251 E.02343
G1 X91.215 Y172.554 E.02199
G1 X91.267 Y171.872 E.02145
G1 X91.454 Y171.177 E.02256
G1 X91.785 Y170.504 E.02352
G1 X92.255 Y169.897 E.02406
G1 X92.886 Y169.361 E.02594
G1 X93.554 Y169.002 E.0238
G1 X94.249 Y168.789 E.0228
G1 X94.948 Y168.714 E.02202
G1 X95.646 Y168.77 E.02197
G1 X96.36 Y168.967 E.02322
G1 X97.048 Y169.317 E.0242
G1 X97.61 Y169.76 E.02243
G1 X98.117 Y170.355 E.02453
G1 X98.49 Y171.035 E.02431
G1 X98.71 Y171.749 E.02343
G1 X98.785 Y172.446 E.02199
G1 X98.733 Y173.128 E.02145
G1 X98.544 Y173.828 E.02272
M204 S1000
G1 X98.203 Y173.649 F10800
M204 S800
;TYPE:External perimeter
G1 F1200
G1 X98.183 Y173.721 E.00231
G1 X97.848 Y174.373 E.02301
G1 X97.41 Y174.911 E.02175
G1 X96.873 Y175.349 E.02172
G1 X96.273 Y175.663 E.02124
G1 X95.646 Y175.848 E.0205
G1 X95.017 Y175.91 E.0198
G1 X94.389 Y175.855 E.01979
G1 X93.746 Y175.671 E.02096
G1 X93.128 Y175.349 E.02184
G1 X92.628 Y174.947 E.02011
G1 X92.173 Y174.404 E.02223
G1 X91.844 Y173.789 E.02188
G1 X91.652 Y173.145 E.02106
G1 X91.59 Y172.519 E.01974
G1 X91.642 Y171.906 E.0193
G1 X91.817 Y171.28 E.02037
G1 X92.121 Y170.675 E.02122
G1 X92.55 Y170.132 E.02169
G1 X93.125 Y169.652 E.02349
G1 X93.727 Y169.337 E.0213
G1 X94.354 Y169.152 E.0205
G1 X94.983 Y169.09 E.0198
G1 X95.611 Y169.145 E.01979
G1 X96.254 Y169.329 E.02096
G1 X96.872 Y169.651 E.02184
G1 X97.372 Y170.053 E.02011
G1 X97.827 Y170.596 E.02223
G1 X98.156 Y171.211 E.02188
G1 X98.348 Y171.855 E.02106
G1 X98.41 Y172.481 E.01974
G1 X98.358 Y173.094 E.0193
G1 X98.219 Y173.592 E.01618
M204 S1000
G1 X98.256 Y173.7 F10800
;WIPE_START
G1 F8640
G1 X98.183 Y173.721 E-.03088
G1 X97.848 Y174.373 E-.16946
G1 X97.41 Y174.911 E-.1602
G1 X96.873 Y175.349 E-.15995
G1 X96.273 Y175.663 E-.15641
G1 X95.928 Y175.765 E-.0831
;WIPE_END
G1 E-.04 F2100
G1 Z.6 F720
G1 X151.491 Y173.904 F10800
G1 Z.2 F720
G1 E.8 F2100
M204 S800
;TYPE:Perimeter
G1 F1200
G1 X151.29 Y173.251 E.02142
G1 X151.215 Y172.554 E.02199
G1 X151.267 Y171.872 E.02145
G1 X151.454 Y171.177 E.02256
G1 X151.785 Y170.504 E.02352
G1 X152.255 Y169.897 E.02406
G1 X152.886 Y169.361 E.02594
G1 X153.554 Y169.002 E.0238
G1 X154.249 Y168.789 E.0228
G1 X154.948 Y168.714 E.02202
G1 X155.646 Y168.77 E.02197
G1 X156.36 Y168.967 E.02322
G1 X157.048 Y169.317 E.0242
G1 X157.61 Y169.76 E.02243
G1 X158.117 Y170.355 E.02453
G1 X158.49 Y171.035 E.02431
G1 X158.71 Y171.749 E.02343
G1 X158.785 Y172.446 E.02199
G1 X158.733 Y173.128 E.02145
G1 X158.546 Y173.823 E.02257
G1 X158.182 Y174.547 E.02541
G1 X157.701 Y175.151 E.0242
G1 X157.11 Y175.643 E.02412
G1 X156.446 Y175.998 E.02361
G1 X155.751 Y176.211 E.0228
G1 X155.052 Y176.286 E.02201
G1 X154.354 Y176.23 E.02197
G1 X153.64 Y176.033 E.02322
G1 X152.952 Y175.682 E.0242
G1 X152.39 Y175.24 E.02243
G1 X151.883 Y174.645 E.02453
G1 X151.509 Y173.961 E.02443
M204 S1000
G1 X151.882 Y173.86 F10800
M204 S800
;TYPE:External perimeter
G1 F1200
G1 X151.844 Y173.789 E.00252
G1 X151.652 Y173.145 E.02106
G1 X151.59 Y172.519 E.01974
G1 X151.642 Y171.906 E.0193
G1 X151.817 Y171.28 E.02037
G1 X152.121 Y170.675 E.02122
G1 X152.55 Y170.132 E.02169
G1 X153.125 Y169.652 E.02349
G1 X153.727 Y169.337 E.02131
G1 X154.354 Y169.152 E.0205
G1 X154.983 Y169.09 E.0198
G1 X155.611 Y169.145 E.01979
G1 X156.254 Y169.329 E.02096
G1 X156.872 Y169.651 E.02184
G1 X157.372 Y170.053 E.02011
G1 X157.827 Y170.596 E.02223
G1 X158.156 Y171.211 E.02188
G1 X158.348 Y171.855 E.02106
G1 X158.41 Y172.481 E.01974
G1 X158.358 Y173.094 E.0193
G1 X158.183 Y173.721 E.02038
G1 X157.848 Y174.373 E.02301
G1 X157.41 Y174.911 E.02175
G1 X156.873 Y175.349 E.02172
G1 X156.273 Y175.663 E.02124
G1 X155.646 Y175.848 E.0205
G1 X155.018 Y175.91 E.0198
G1 X154.389 Y175.855 E.01979
G1 X153.746 Y175.671 E.02096
G1 X153.128 Y175.349 E.02184
G1 X152.628 Y174.947 E.02011
G1 X152.173 Y174.404 E.02223
G1 X151.91 Y173.913 E.01747
M204 S1000
G1 X151.801 Y173.86 F10800
;WIPE_START
G1 F8640
G1 X151.844 Y173.789 E-.03244
G1 X151.652 Y173.145 E-.15512
G1 X151.59 Y172.519 E-.14534
G1 X151.642 Y171.906 E-.14211
G1 X151.817 Y171.28 E-.15003
G1 X152.08 Y170.758 E-.13496
;WIPE_END
G1 E-.04 F2100
G1 Z.6 F720
G1 X234.1 Y29.163 F10800
G1 Z.2 F720
G1 E.8 F2100
M204 S800
;TYPE:Solid infill
;WIDTH:0.420322
M73 Q2 S162
G1 F1200
G1 X233.507 Y28.57 E.02633
G1 X232.973 Y28.57 E.01675
G1 X233.93 Y29.527 E.04249
G1 X233.93 Y30.061 E.01675
M73 P2 R161
G1 X232.439 Y28.57 E.06617
G1 X231.905 Y28.57 E.01675
G1 X233.93 Y30.595 E.08986
G1 X233.93 Y31.128 E.01675
G1 X231.372 Y28.57 E.11354
G1 X230.838 Y28.57 E.01675
G1 X233.93 Y31.662 E.13723
G1 X233.93 Y32.196 E.01675
G1 X230.304 Y28.57 E.16092
G1 X229.77 Y28.57 E.01675
G1 X233.93 Y32.73 E.1846
G1 X233.93 Y33.263 E.01675
G1 X229.237 Y28.57 E.20829
G1 X228.703 Y28.57 E.01675
G1 X233.93 Y33.797 E.23198
G1 X233.93 Y34.331 E.01675
G1 X228.169 Y28.57 E.25566
G1 X227.636 Y28.57 E.01675
G1 X233.93 Y34.864 E.27935
G1 X233.93 Y35.398 E.01675
G1 X231.07 Y32.538 E.12694
G1 X231.07 Y33.072 E.01675
G1 X233.93 Y35.932 E.12694
G1 X233.93 Y36.466 E.01675
G1 X231.07 Y33.605 E.12694
G1 X231.07 Y34.139 E.01675
G1 X233.93 Y36.999 E.12694
G1 X233.93 Y37.533 E.01675
G1 X231.07 Y34.673 E.12694
G1 X231.07 Y35.207 E.01675
G1 X233.93 Y38.067 E.12694
G1 X233.93 Y38.601 E.01675
G1 X231.07 Y35.74 E.12694
G1 X231.07 Y36.274 E.01675
G1 X233.93 Y39.134 E.12694
G1 X233.93 Y39.668 E.01675
G1 X231.07 Y36.808 E.12694
G1 X231.07 Y37.341 E.01675
G1 X233.93 Y40.202 E.12694
G1 X233.93 Y40.735 E.01675
G1 X231.07 Y37.875 E.12694
G1 X231.07 Y38.409 E.01675
G1 X233.93 Y41.269 E.12694
G1 X233.93 Y41.803 E.01675
G1 X231.07 Y38.943 E.12694
G1 X231.07 Y39.476 E.01675
G1 X233.93 Y42.337 E.12694
G1 X233.93 Y42.87 E.01675
G1 X231.07 Y40.01 E.12694
G1 X231.07 Y40.544 E.01675
G1 X233.93 Y43.404 E.12694
G1 X233.93 Y43.938 E.01675
G1 X231.07 Y41.078 E.12694
G1 X231.07 Y41.611 E.01675
G1 X233.93 Y44.472 E.12694
G1 X233.93 Y45.005 E.01675
G1 X231.07 Y42.145 E.12694
G1 X231.07 Y42.679 E.01675
G1 X233.93 Y45.539 E.12694
G1 X233.93 Y46.073 E.01675
G1 X231.07 Y43.212 E.12694
G1 X231.07 Y43.746 E.01675
G1 X233.93 Y46.606 E.12694
G1 X233.93 Y47.14 E.01675
G1 X231.07 Y44.28 E.12694
G1 X231.07 Y44.814 E.01675
G1 X233.93 Y47.674 E.12694
G1 X233.93 Y48.208 E.01675
G1 X231.07 Y45.347 E.12694
G1 X231.07 Y45.881 E.01675
G1 X233.93 Y48.741 E.12694
G1 X233.93 Y49.275 E.01675
G1 X231.07 Y46.415 E.12694
G1 X231.07 Y46.949 E.01675
G1 X233.93 Y49.809 E.12694
G1 X233.93 Y50.343 E.01675
G1 X231.07 Y47.482 E.12694
G1 X231.07 Y48.016 E.01675
G1 X233.93 Y50.876 E.12694
G1 X233.93 Y51.41 E.01675
G1 X231.07 Y48.55 E.12694
G1 X231.07 Y49.083 E.01675
G1 X233.93 Y51.944 E.12694
G1 X233.93 Y52.477 E.01675
G1 X231.07 Y49.617 E.12694
G1 X231.07 Y50.151 E.01675
G1 X233.93 Y53.011 E.12694
G1 X233.93 Y53.545 E.01675
G1 X231.07 Y50.685 E.12694
G1 X231.07 Y51.218 E.01675
G1 X233.93 Y54.079 E.12694
G1 X233.93 Y54.612 E.01675
G1 X231.07 Y51.752 E.12694
G1 X231.07 Y52.286 E.01675
G1 X233.93 Y55.146 E.12694
G1 X233.93 Y55.68 E.01675
G1 X231.07 Y52.82 E.12694
G1 X231.07 Y53.353 E.01675
G1 X233.93 Y56.214 E.12694
G1 X233.93 Y56.747 E.01675
G1 X231.07 Y53.887 E.12694
G1 X231.07 Y54.421 E.01675
G1 X233.93 Y57.281 E.12694
G1 X233.93 Y57.815 E.01675
G1 X231.07 Y54.954 E.12694
G1 X231.07 Y55.488 E.01675
G1 X233.93 Y58.348 E.12694
G1 X233.93 Y58.882 E.01675
G1 X231.07 Y56.022 E.12694
G1 X231.07 Y56.556 E.01675
G1 X233.93 Y59.416 E.12694
G1 X233.93 Y59.95 E.01675
G1 X231.07 Y57.089 E.12694
G1 X231.07 Y57.623 E.01675
G1 X233.93 Y60.483 E.12694
G1 X233.93 Y61.017 E.01675
G1 X231.07 Y58.157 E.12694
G1 X231.07 Y58.691 E.01675
G1 X233.93 Y61.551 E.12694
G1 X233.93 Y62.085 E.01675
G1 X231.07 Y59.224 E.12694
G1 X231.07 Y59.758 E.01675
G1 X233.93 Y62.618 E.12694
G1 X233.93 Y63.152 E.01675
G1 X231.07 Y60.292 E.12694
G1 X231.07 Y60.825 E.01675
G1 X233.93 Y63.686 E.12694
G1 X233.93 Y64.219 E.01675
G1 X231.07 Y61.359 E.12694
G1 X231.07 Y61.893 E.01675
G1 X233.93 Y64.753 E.12694
G1 X233.93 Y65.287 E.01675
G1 X231.07 Y62.427 E.12694
G1 X231.07 Y62.96 E.01675
G1 X233.93 Y65.821 E.12694
G1 X233.93 Y66.354 E.01675
G1 X231.07 Y63.494 E.12694
G1 X231.07 Y64.028 E.01675
G1 X233.93 Y66.888 E.12694
G1 X233.93 Y67.422 E.01675
G1 X231.07 Y64.562 E.12694
G1 X231.07 Y65.095 E.01675
G1 X233.93 Y67.956 E.12694
G1 X233.93 Y68.489 E.01675
G1 X231.07 Y65.629 E.12694
G1 X231.07 Y66.163 E.01675
G1 X233.93 Y69.023 E.12694
G1 X233.93 Y69.557 E.01675
G1 X231.07 Y66.696 E.12694
G1 X231.07 Y67.23 E.01675
G1 X233.93 Y70.09 E.12694
G1 X233.93 Y70.624 E.01675
G1 X231.07 Y67.764 E.12694
G1 X231.07 Y68.298 E.01675
G1 X233.93 Y71.158 E.12694
G1 X233.93 Y71.692 E.01675
G1 X231.07 Y68.831 E.12694
G1 X231.07 Y69.365 E.01675
G1 X233.93 Y72.225 E.12694
G1 X233.93 Y72.759 E.01675
G1 X231.07 Y69.899 E.12694
G1 X231.07 Y70.433 E.01675
G1 X233.93 Y73.293 E.12694
G1 X233.93 Y73.827 E.01675
G1 X231.07 Y70.966 E.12694
G1 X231.07 Y71.5 E.01675
G1 X233.93 Y74.36 E.12694
G1 X233.93 Y74.894 E.01675
G1 X231.07 Y72.034 E.12694
G1 X231.07 Y72.567 E.01675
G1 X233.93 Y75.428 E.12694
G1 X233.93 Y75.961 E.01675
G1 X231.07 Y73.101 E.12694
G1 X231.07 Y73.635 E.01675
G1 X233.93 Y76.495 E.12694
G1 X233.93 Y77.029 E.01675
G1 X231.07 Y74.169 E.12694
G1 X231.07 Y74.702 E.01675
G1 X233.93 Y77.563 E.12694
G1 X233.93 Y78.096 E.01675
G1 X231.07 Y75.236 E.12694
G1 X231.07 Y75.77 E.01675
G1 X233.93 Y78.63 E.12694
G1 X233.93 Y79.164 E.01675
G1 X231.07 Y76.304 E.12694
G1 X231.07 Y76.837 E.01675
G1 X233.93 Y79.698 E.12694
G1 X233.93 Y80.231 E.01675
G1 X231.07 Y77.371 E.12694
G1 X231.07 Y77.905 E.01675
G1 X233.93 Y80.765 E.12694
G1 X233.93 Y81.299 E.01675
G1 X231.07 Y78.438 E.12694
G1 X231.07 Y78.972 E.01675
G1 X233.93 Y81.832 E.12694
G1 X233.93 Y82.366 E.01675
G1 X231.07 Y79.506 E.12694
G1 X231.07 Y80.04 E.01675
G1 X233.93 Y82.9 E.12694
G1 X233.93 Y83.434 E.01675
G1 X231.07 Y80.573 E.12694
G1 X231.07 Y81.107 E.01675
G1 X233.93 Y83.967 E.12694
G1 X233.93 Y84.501 E.01675
G1 X231.07 Y81.641 E.12694
G1 X231.07 Y82.175 E.01675
G1 X233.93 Y85.035 E.12694
G1 X233.93 Y85.569 E.01675
G1 X231.07 Y82.708 E.12694
G1 X231.07 Y83.242 E.01675
G1 X233.93 Y86.102 E.12694
G1 X233.93 Y86.636 E.01675
G1 X231.07 Y83.776 E.12694
G1 X231.07 Y84.309 E.01675
G1 X233.93 Y87.17 E.12694
G1 X233.93 Y87.703 E.01675
G1 X231.07 Y84.843 E.12694
G1 X231.07 Y85.377 E.01675
G1 X233.93 Y88.237 E.12694
G1 X233.93 Y88.771 E.01675
G1 X231.07 Y85.911 E.12694
G1 X231.07 Y86.444 E.01675
G1 X233.93 Y89.305 E.12694
G1 X233.93 Y89.838 E.01675
G1 X231.07 Y86.978 E.12694
G1 X231.07 Y87.512 E.01675
G1 X233.93 Y90.372 E.12694
G1 X233.93 Y90.906 E.01675
G1 X231.07 Y88.046 E.12694
G1 X231.07 Y88.579 E.01675
G1 X233.93 Y91.44 E.12694
G1 X233.93 Y91.973 E.01675
G1 X231.07 Y89.113 E.12694
G1 X231.07 Y89.647 E.01675
G1 X233.93 Y92.507 E.12694
G1 X233.93 Y93.041 E.01675
G1 X231.07 Y90.18 E.12694
G1 X231.07 Y90.714 E.01675
G1 X233.93 Y93.574 E.12694
G1 X233.93 Y94.108 E.01675
G1 X231.07 Y91.248 E.12694
G1 X231.07 Y91.782 E.01675
G1 X233.93 Y94.642 E.12694
G1 X233.93 Y95.176 E.01675
G1 X231.07 Y92.315 E.12694
G1 X231.07 Y92.849 E.01675
G1 X233.93 Y95.709 E.12694
G1 X233.93 Y96.243 E.01675
G1 X231.07 Y93.383 E.12694
G1 X231.07 Y93.917 E.01675
G1 X233.93 Y96.777 E.12694
G1 X233.93 Y97.311 E.01675
G1 X231.07 Y94.45 E.12694
G1 X231.07 Y94.984 E.01675
G1 X233.93 Y97.844 E.12694
G1 X233.93 Y98.378 E.01675
G1 X231.07 Y95.518 E.12694
G1 X231.07 Y96.051 E.01675
G1 X233.93 Y98.912 E.12694
G1 X233.93 Y99.445 E.01675
G1 X231.07 Y96.585 E.12694
G1 X231.07 Y97.119 E.01675
