; generated by PrusaSlicer 2.5.0+MacOS-arm64 on 2023-03-01 at 11:28:44 UTC


;
;
; 

; external perimeters extrusion width = 0.60mm
; perimeters extrusion width = 0.50mm
; infill extrusion width = 0.50mm
; solid infill extrusion width = 0.50mm
; top infill extrusion width = 0.45mm
; first layer extrusion width = 0.42mm

; external perimeters extrusion width = 0.60mm
; perimeters extrusion width = 0.50mm
; infill extrusion width = 0.50mm
; solid infill extrusion width = 0.50mm
; top infill extrusion width = 0.45mm
; first layer extrusion width = 0.42mm

M73 P0 R213
M73 Q0 S216
M201 X1000 Y1000 Z200 E5000 ; sets maximum accelerations, mm/sec^2
M203 X200 Y200 Z12 E120 ; sets maximum feedrates, mm / sec
M204 P1250 R1250 T1250 ; sets acceleration (P, T) and retract acceleration (R), mm/sec^2
M205 X8.00 Y8.00 Z0.40 E4.50 ; sets the jerk limits, mm/sec
M205 S0 T0 ; sets the minimum extruding and travel feed rate, mm/sec
M107
;TYPE:Custom
M862.3 P "MK3S" ; printer model check
M862.1 P0.4 ; nozzle diameter check
M115 U3.12.1 ; tell printer latest fw version
G90 ; use absolute coordinates
M83 ; extruder relative mode
M104 S215 ; set extruder temp
M140 S60 ; set bed temp
M190 S60 ; wait for bed temp
M109 S215 ; wait for extruder temp
G28 W ; home all without mesh bed level
G80 ; mesh bed leveling

G1 Z0.2 F720
G1 Y-3 F1000 ; go outside print area
G92 E0
G1 X60 E9 F1000 ; intro line
G1 X100 E12.5 F1000 ; intro line

G92 E0
M221 S95

; Don't change E values below. Excessive value can damage the printer.

M907 E538 ; set extruder motor current
G21 ; set units to millimeters
G90 ; use absolute coordinates
M83 ; use relative distances for extrusion
M900 K0.05 ; Filament gcode LA 1.5
M900 K30 ; Filament gcode LA 1.0
M107
;LAYER_CHANGE
;Z:0.2
;HEIGHT:0.2
;BEFORE_LAYER_CHANGE
G92 E0.0
;0.2


G1 E-.8 F2100
M73 Q0 S215
G1 Z.4 F720
;AFTER_LAYER_CHANGE
;0.2
G1 X14.06 Y25.3 F10800
G1 Z.2 F720
G1 E.8 F2100
M204 S800
;TYPE:Skirt/Brim
;WIDTH:0.42
G1 F1200
G1 X15 Y25.107 E.03008
G1 X235 Y25.107 E6.89795
G1 X236.307 Y25.498 E.04278
G1 X237.183 Y26.544 E.04278
G1 X237.377 Y27.484 E.03008
G1 X237.377 Y182.516 E4.86092
G1 X236.985 Y183.823 E.04278
G1 X235.94 Y184.7 E.04278
G1 X235 Y184.893 E.03008
G1 X15 Y184.893 E6.89795
G1 X13.693 Y184.502 E.04278
G1 X12.817 Y183.456 E.04278
G1 X12.623 Y182.516 E.03008
G1 X12.623 Y27.484 E4.86092
G1 X13.015 Y26.177 E.04278
G1 X14.014 Y25.339 E.0409
M204 S1000
; printing object holder1.stl id:0 copy 0
;WIPE_START
G1 F8640
G1 X15 Y25.107 E-.23384
G1 X17.279 Y25.107 E-.52616
;WIPE_END
G1 E-.04 F2100
G1 Z.6 F720
G1 X15.787 Y181.729 F10800
G1 Z.2 F720
G1 E.8 F2100
M204 S800
;TYPE:Perimeter
;WIDTH:0.419999
G1 F1200
G1 X15.787 Y28.271 E4.81156
G1 X234.213 Y28.271 E6.84858
M73 P0 R212
G1 X234.213 Y181.729 E4.81156
M73 Q0 S214
G1 X15.847 Y181.729 E6.8467
M204 S1000
G1 X15.41 Y182.106 F10800
M204 S800
;TYPE:External perimeter
G1 F1200
G1 X15.41 Y27.894 E4.83521
G1 X234.59 Y27.894 E6.87222
G1 X234.59 Y182.106 E4.83521
G1 X15.47 Y182.106 E6.87034
M204 S1000
G1 X15.536 Y181.726 F10800
;WIPE_START
M73 P0 R211
G1 F8640
G1 X15.469 Y178.815 E-.76
;WIPE_END
G1 E-.04 F2100
G1 Z.6 F720
G1 X210.268 Y168.299 F10800
G1 Z.2 F720
M73 Q0 S213
G1 E.8 F2100
M204 S800
;TYPE:Perimeter
G1 F1200
G1 X199.779 Y168.303 E.32888
G1 X199.54 Y168.25 E.00765
G1 X199.328 Y168.079 E.00857
G1 X199.218 Y167.81 E.0091
G1 X199.213 Y167.738 E.00228
G1 X199.213 Y158.303 E.29581
G1 X50.787 Y158.303 E4.65378
G1 X50.787 Y167.738 E.29581
M73 P1 R211
M73 Q1 S213
G1 X50.724 Y167.998 E.00841
G1 X50.559 Y168.191 E.00795
G1 X50.319 Y168.295 E.0082
G1 X50.221 Y168.303 E.00308
G1 X39.779 Y168.303 E.32743
G1 X39.538 Y168.249 E.00772
G1 X39.325 Y168.075 E.00863
G1 X39.221 Y167.835 E.0082
G1 X39.213 Y167.738 E.00308
G1 X39.213 Y42.295 E3.93317
G1 X39.275 Y42.037 E.0083
G1 X39.439 Y41.842 E.00798
G1 X39.681 Y41.737 E.00827
G1 X39.779 Y41.729 E.00308
G1 X50.221 Y41.729 E.32743
G1 X50.46 Y41.782 E.00765
G1 X50.672 Y41.953 E.00856
G1 X50.782 Y42.222 E.00911
G1 X50.787 Y42.295 E.00229
G1 X50.787 Y51.729 E.29581
G1 X199.213 Y51.729 E4.65378
G1 X199.213 Y42.295 E.29581
G1 X199.277 Y42.034 E.00842
G1 X199.441 Y41.841 E.00794
G1 X199.681 Y41.737 E.00819
G1 X199.779 Y41.729 E.00308
G1 X210.221 Y41.729 E.32743
G1 X210.461 Y41.782 E.00771
G1 X210.674 Y41.956 E.00861
G1 X210.779 Y42.197 E.00823
G1 X210.787 Y42.295 E.00308
G1 X210.787 Y167.738 E3.93317
G1 X210.726 Y167.994 E.00826
G1 X210.562 Y168.189 E.008
G1 X210.327 Y168.291 E.00804
M204 S1000
G1 X210.221 Y167.926 F10800
M204 S800
;TYPE:External perimeter
G1 F1200
G1 X199.779 Y167.926 E.32743
G1 X199.639 Y167.864 E.00478
G1 X199.59 Y167.738 E.00427
G1 X199.59 Y157.926 E.30763
G1 X50.41 Y157.926 E4.67743
G1 X50.41 Y167.738 E.30763
G1 X50.348 Y167.877 E.00478
G1 X50.221 Y167.926 E.00427
G1 X39.779 Y167.926 E.32743
G1 X39.638 Y167.863 E.00482
G1 X39.59 Y167.738 E.00423
G1 X39.59 Y42.295 E3.93317
G1 X39.651 Y42.156 E.00476
G1 X39.779 Y42.106 E.00429
G1 X50.221 Y42.106 E.32743
G1 X50.361 Y42.168 E.00478
G1 X50.41 Y42.295 E.00427
G1 X50.41 Y52.106 E.30763
G1 X199.59 Y52.106 E4.67743
G1 X199.59 Y42.295 E.30763
M73 P1 R210
G1 X199.652 Y42.155 E.00479
G1 X199.779 Y42.106 E.00426
G1 X210.221 Y42.106 E.32743
G1 X210.362 Y42.168 E.00481
G1 X210.41 Y42.295 E.00424
G1 X210.41 Y167.738 E3.93317
G1 X210.349 Y167.876 E.00475
M73 Q1 S212
G1 X210.277 Y167.904 E.00242
M204 S1000
G1 X210.118 Y168.312 F10800
;WIPE_START
G1 F8640
G1 X206.986 Y167.911 E-.76
;WIPE_END
G1 E-.04 F2100
G1 Z.6 F720
G1 X98.508 Y173.892 F10800
G1 Z.2 F720
G1 E.8 F2100
M204 S800
;TYPE:Perimeter
G1 F1200
G1 X98.191 Y174.519 E.02205
G1 X97.703 Y175.133 E.02457
G1 X97.13 Y175.613 E.02343
G1 X96.456 Y175.978 E.02406
G1 X95.747 Y176.195 E.02322
G1 X95.052 Y176.27 E.02192
G1 X94.358 Y176.215 E.02183
G1 X93.657 Y176.023 E.02279
G1 X92.982 Y175.686 E.02365
G1 X92.374 Y175.209 E.02423
G1 X91.874 Y174.618 E.02428
G1 X91.499 Y173.921 E.0248
G1 X91.287 Y173.22 E.02296
G1 X91.214 Y172.534 E.02165
G1 X91.269 Y171.841 E.0218
G1 X91.464 Y171.133 E.02302
G1 X91.809 Y170.448 E.02404
G1 X92.271 Y169.862 E.02341
G1 X92.868 Y169.357 E.02449
G1 X93.544 Y168.99 E.02415
G1 X94.253 Y168.773 E.02322
G1 X94.948 Y168.698 E.02192
G1 X95.642 Y168.753 E.02183
G1 X96.343 Y168.945 E.02279
G1 X97.018 Y169.281 E.02366
G1 X97.626 Y169.758 E.02423
G1 X98.126 Y170.35 E.02428
G1 X98.501 Y171.046 E.02481
G1 X98.713 Y171.747 E.02296
G1 X98.786 Y172.434 E.02165
G1 X98.731 Y173.127 E.0218
G1 X98.535 Y173.838 E.02312
M204 S1000
G1 X98.18 Y173.708 F10800
M204 S800
;TYPE:External perimeter
G1 F1200
G1 X97.857 Y174.345 E.02241
G1 X97.411 Y174.893 E.02216
G1 X96.892 Y175.32 E.02106
G1 X96.281 Y175.644 E.0217
G1 X95.642 Y175.833 E.02088
G1 X95.017 Y175.894 E.01969
G1 X94.393 Y175.84 E.01966
G1 X93.761 Y175.661 E.02057
G1 X93.155 Y175.352 E.02134
G1 X92.611 Y174.916 E.02185
G1 X92.166 Y174.379 E.02187
G1 X91.833 Y173.748 E.02238
G1 X91.65 Y173.117 E.0206
G1 X91.59 Y172.5 E.01944
G1 X91.645 Y171.876 E.01964
G1 X91.826 Y171.238 E.02079
G1 X92.143 Y170.623 E.02169
G1 X92.564 Y170.099 E.02106
G1 X93.107 Y169.649 E.02213
G1 X93.719 Y169.324 E.02173
G1 X94.358 Y169.135 E.02088
G1 X94.983 Y169.074 E.01969
G1 X95.607 Y169.128 E.01966
G1 X96.239 Y169.307 E.02057
G1 X96.845 Y169.616 E.02134
G1 X97.389 Y170.052 E.02185
G1 X97.834 Y170.589 E.02187
G1 X98.167 Y171.22 E.02238
G1 X98.35 Y171.851 E.0206
G1 X98.41 Y172.468 E.01944
G1 X98.355 Y173.092 E.01964
G1 X98.197 Y173.65 E.01818
M204 S1000
G1 X98.43 Y174.02 F10800
;WIPE_START
G1 F8640
G1 X97.857 Y174.345 E-.17862
G1 X97.411 Y174.893 E-.16317
G1 X96.892 Y175.32 E-.1551
G1 X96.281 Y175.644 E-.1598
G1 X95.852 Y175.771 E-.10331
;WIPE_END
G1 E-.04 F2100
G1 Z.6 F720
G1 X156.395 Y175.997 F10800
G1 Z.2 F720
G1 E.8 F2100
M204 S800
;TYPE:Perimeter
G1 F1200
G1 X155.747 Y176.195 E.02124
G1 X155.052 Y176.27 E.02192
G1 X154.358 Y176.215 E.02183
G1 X153.657 Y176.023 E.02279
G1 X152.982 Y175.686 E.02366
G1 X152.374 Y175.209 E.02423
G1 X151.874 Y174.618 E.02428
G1 X151.499 Y173.921 E.0248
G1 X151.287 Y173.22 E.02296
G1 X151.214 Y172.534 E.02165
G1 X151.269 Y171.841 E.0218
G1 X151.464 Y171.133 E.02302
G1 X151.809 Y170.448 E.02404
G1 X152.271 Y169.862 E.02341
G1 X152.868 Y169.357 E.02449
G1 X153.544 Y168.99 E.02415
G1 X154.253 Y168.773 E.02322
G1 X154.948 Y168.698 E.02192
G1 X155.642 Y168.753 E.02183
G1 X156.343 Y168.944 E.02279
G1 X157.018 Y169.281 E.02366
G1 X157.626 Y169.758 E.02423
G1 X158.126 Y170.35 E.02428
G1 X158.501 Y171.046 E.0248
G1 X158.713 Y171.747 E.02296
G1 X158.786 Y172.434 E.02165
G1 X158.731 Y173.127 E.0218
G1 X158.536 Y173.835 E.02302
G1 X158.191 Y174.52 E.02404
G1 X157.703 Y175.133 E.02457
G1 X157.13 Y175.613 E.02343
G1 X156.452 Y175.979 E.02416
M204 S1000
G1 X156.271 Y175.647 F10800
M204 S800
;TYPE:External perimeter
G1 F1200
G1 X155.642 Y175.833 E.02056
G1 X155.017 Y175.894 E.01969
G1 X154.393 Y175.84 E.01966
G1 X153.761 Y175.661 E.02057
G1 X153.155 Y175.352 E.02134
G1 X152.611 Y174.916 E.02185
G1 X152.166 Y174.379 E.02187
G1 X151.833 Y173.748 E.02238
G1 X151.65 Y173.117 E.0206
G1 X151.59 Y172.5 E.01944
G1 X151.645 Y171.876 E.01964
G1 X151.826 Y171.238 E.02079
G1 X152.143 Y170.623 E.02169
G1 X152.564 Y170.099 E.02106
G1 X153.107 Y169.649 E.02213
G1 X153.719 Y169.324 E.02173
G1 X154.358 Y169.135 E.02088
G1 X154.983 Y169.074 E.01969
G1 X155.607 Y169.128 E.01966
G1 X156.239 Y169.307 E.02057
G1 X156.845 Y169.616 E.02134
G1 X157.389 Y170.052 E.02185
G1 X157.834 Y170.589 E.02187
G1 X158.166 Y171.22 E.02238
G1 X158.35 Y171.851 E.0206
G1 X158.41 Y172.468 E.01944
G1 X158.355 Y173.092 E.01964
G1 X158.174 Y173.73 E.02079
G1 X157.857 Y174.345 E.0217
G1 X157.411 Y174.893 E.02216
G1 X156.892 Y175.32 E.02106
G1 X156.325 Y175.621 E.02013
M204 S1000
G1 X156.216 Y176.043 F10800
;WIPE_START
G1 F8640
G1 X155.642 Y175.833 E-.16506
G1 X155.017 Y175.894 E-.145
G1 X154.393 Y175.84 E-.14476
G1 X153.761 Y175.661 E-.15152
G1 X153.169 Y175.358 E-.15367
;WIPE_END
G1 E-.04 F2100
G1 Z.6 F720
G1 X233.337 Y28.384 F10800
G1 Z.2 F720
G1 E.8 F2100
M204 S800
;TYPE:Solid infill
;WIDTH:0.420355
G1 F1200
G1 X233.93 Y28.977 E.02633
G1 X233.93 Y29.511 E.01675
G1 X232.973 Y28.554 E.04249
G1 X232.439 Y28.554 E.01675
G1 X233.93 Y30.045 E.06618
G1 X233.93 Y30.579 E.01675
G1 X231.905 Y28.554 E.08988
G1 X231.371 Y28.554 E.01675
G1 X233.93 Y31.113 E.11357
G1 X233.93 Y31.646 E.01675
G1 X230.838 Y28.554 E.13726
G1 X230.304 Y28.554 E.01675
G1 X233.93 Y32.18 E.16095
G1 X233.93 Y32.714 E.01675
G1 X229.77 Y28.554 E.18464
G1 X229.236 Y28.554 E.01675
G1 X233.93 Y33.248 E.20833
G1 X233.93 Y33.781 E.01675
G1 X228.703 Y28.554 E.23202
G1 X228.169 Y28.554 E.01675
G1 X233.93 Y34.315 E.25571
G1 X233.93 Y34.849 E.01675
G1 X227.635 Y28.554 E.2794
G1 X227.101 Y28.554 E.01675
G1 X233.93 Y35.383 E.30309
G1 X233.93 Y35.917 E.01675
G1 X226.567 Y28.554 E.32678
G1 X226.034 Y28.554 E.01675
G1 X233.93 Y36.45 E.35047
G1 X233.93 Y36.984 E.01675
G1 X225.5 Y28.554 E.37416
G1 X224.966 Y28.554 E.01675
G1 X233.93 Y37.518 E.39785
G1 X233.93 Y38.052 E.01675
G1 X224.432 Y28.554 E.42155
G1 X223.899 Y28.554 E.01675
G1 X233.93 Y38.585 E.44524
G1 X233.93 Y39.119 E.01675
G1 X223.365 Y28.554 E.46893
G1 X222.831 Y28.554 E.01675
G1 X233.93 Y39.653 E.49262
G1 X233.93 Y40.187 E.01675
G1 X222.297 Y28.554 E.51631
G1 X221.763 Y28.554 E.01675
G1 X233.93 Y40.72 E.54
G1 X233.93 Y41.254 E.01675
G1 X221.23 Y28.554 E.56369
G1 X220.696 Y28.554 E.01675
G1 X233.93 Y41.788 E.58738
G1 X233.93 Y42.322 E.01675
G1 X220.162 Y28.554 E.61107
G1 X219.628 Y28.554 E.01675
G1 X233.93 Y42.856 E.63476
G1 X233.93 Y43.389 E.01675
G1 X219.095 Y28.554 E.65845
G1 X218.561 Y28.554 E.01675
G1 X233.93 Y43.923 E.68214
G1 X233.93 Y44.457 E.01675
G1 X218.027 Y28.554 E.70583
G1 X217.493 Y28.554 E.01675
G1 X233.93 Y44.991 E.72952
G1 X233.93 Y45.524 E.01675
G1 X216.96 Y28.554 E.75322
G1 X216.426 Y28.554 E.01675
G1 X233.93 Y46.058 E.77691
G1 X233.93 Y46.592 E.01675
G1 X215.892 Y28.554 E.8006
G1 X215.358 Y28.554 E.01675
G1 X233.93 Y47.126 E.82429
G1 X233.93 Y47.66 E.01675
G1 X214.824 Y28.554 E.84798
G1 X214.291 Y28.554 E.01675
G1 X233.93 Y48.193 E.87167
G1 X233.93 Y48.727 E.01675
G1 X213.757 Y28.554 E.89536
G1 X213.223 Y28.554 E.01675
G1 X233.93 Y49.261 E.91905
G1 X233.93 Y49.795 E.01675
G1 X212.689 Y28.554 E.94274
G1 X212.156 Y28.554 E.01675
G1 X233.93 Y50.328 E.96643
G1 X233.93 Y50.862 E.01675
G1 X211.622 Y28.554 E.99012
G1 X211.088 Y28.554 E.01675
G1 X233.93 Y51.396 E1.01381
G1 X233.93 Y51.93 E.01675
G1 X210.554 Y28.554 E1.0375
G1 X210.02 Y28.554 E.01675
M73 P1 R209
G1 X233.93 Y52.464 E1.0612
G1 X233.93 Y52.997 E.01675
G1 X209.487 Y28.554 E1.08489
G1 X208.953 Y28.554 E.01675
G1 X233.93 Y53.531 E1.10858
G1 X233.93 Y54.065 E.01675
G1 X208.419 Y28.554 E1.13227
G1 X207.885 Y28.554 E.01675
G1 X233.93 Y54.599 E1.15596
G1 X233.93 Y55.132 E.01675
M73 Q1 S211
G1 X207.352 Y28.554 E1.17965
G1 X206.818 Y28.554 E.01675
G1 X233.93 Y55.666 E1.20334
G1 X233.93 Y56.2 E.01675
G1 X206.284 Y28.554 E1.22703
G1 X205.75 Y28.554 E.01675
G1 X233.93 Y56.734 E1.25072
G1 X233.93 Y57.267 E.01675
G1 X205.216 Y28.554 E1.27441
G1 X204.683 Y28.554 E.01675
G1 X233.93 Y57.801 E1.2981
G1 X233.93 Y58.335 E.01675
G1 X204.149 Y28.554 E1.32179
G1 X203.615 Y28.554 E.01675
G1 X233.93 Y58.869 E1.34548
G1 X233.93 Y59.403 E.01675
M73 P2 R209
M73 Q2 S211
G1 X203.081 Y28.554 E1.36917
G1 X202.548 Y28.554 E.01675
G1 X233.93 Y59.936 E1.39287
G1 X233.93 Y60.47 E.01675
G1 X202.014 Y28.554 E1.41656
G1 X201.48 Y28.554 E.01675
G1 X233.93 Y61.004 E1.44025
G1 X233.93 Y61.538 E.01675
G1 X200.946 Y28.554 E1.46394
G1 X200.413 Y28.554 E.01675
G1 X233.93 Y62.071 E1.48763
G1 X233.93 Y62.605 E.01675
G1 X199.879 Y28.554 E1.51132
G1 X199.345 Y28.554 E.01675
G1 X233.93 Y63.139 E1.53501
G1 X233.93 Y63.673 E.01675
G1 X198.811 Y28.554 E1.5587
G1 X198.277 Y28.554 E.01675
G1 X233.93 Y64.207 E1.58239
G1 X233.93 Y64.74 E.01675
G1 X197.744 Y28.554 E1.60608
G1 X197.21 Y28.554 E.01675
G1 X210.102 Y41.446 E.57221
G1 X210.229 Y41.446 E.00399
G1 X210.497 Y41.491 E.00852
G1 X210.729 Y41.614 E.00825
G1 X210.853 Y41.728 E.00528
G1 X210.977 Y41.908 E.00686
G1 X211.045 Y42.088 E.00603
G1 X211.07 Y42.414 E.01027
G1 X233.93 Y65.274 E1.01462
G1 X233.93 Y65.808 E.01675
G1 X211.07 Y42.948 E1.01462
G1 X211.07 Y43.481 E.01675
G1 X233.93 Y66.342 E1.01462
G1 X233.93 Y66.875 E.01675
G1 X211.07 Y44.015 E1.01462
G1 X211.07 Y44.549 E.01675
G1 X233.93 Y67.409 E1.01462
G1 X233.93 Y67.943 E.01675
M73 P2 R208
G1 X211.07 Y45.083 E1.01462
G1 X211.07 Y45.616 E.01675
G1 X233.93 Y68.477 E1.01462
G1 X233.93 Y69.01 E.01675
G1 X211.07 Y46.15 E1.01462
G1 X211.07 Y46.684 E.01675
G1 X233.93 Y69.544 E1.01462
G1 X233.93 Y70.078 E.01675
G1 X211.07 Y47.218 E1.01462
G1 X211.07 Y47.752 E.01675
M73 Q2 S210
G1 X233.93 Y70.612 E1.01462
G1 X233.93 Y71.146 E.01675
G1 X211.07 Y48.285 E1.01462
G1 X211.07 Y48.819 E.01675
G1 X233.93 Y71.679 E1.01462
G1 X233.93 Y72.213 E.01675
G1 X211.07 Y49.353 E1.01462
G1 X211.07 Y49.887 E.01675
G1 X233.93 Y72.747 E1.01462
G1 X233.93 Y73.281 E.01675
G1 X211.07 Y50.42 E1.01462
G1 X211.07 Y50.954 E.01675
G1 X233.93 Y73.814 E1.01462
G1 X233.93 Y74.348 E.01675
G1 X211.07 Y51.488 E1.01462
G1 X211.07 Y52.022 E.01675
G1 X233.93 Y74.882 E1.01462
G1 X233.93 Y75.416 E.01675
G1 X211.07 Y52.556 E1.01462
G1 X211.07 Y53.089 E.01675
G1 X233.93 Y75.95 E1.01462
G1 X233.93 Y76.483 E.01675
G1 X211.07 Y53.623 E1.01462
G1 X211.07 Y54.157 E.01675
G1 X233.93 Y77.017 E1.01462
G1 X233.93 Y77.551 E.01675
G1 X211.07 Y54.691 E1.01462
G1 X211.07 Y55.224 E.01675
G1 X233.93 Y78.085 E1.01462
G1 X233.93 Y78.618 E.01675
G1 X211.07 Y55.758 E1.01462
G1 X211.07 Y56.292 E.01675
G1 X233.93 Y79.152 E1.01462
G1 X233.93 Y79.686 E.01675
G1 X211.07 Y56.826 E1.01462
G1 X211.07 Y57.36 E.01675
G1 X233.93 Y80.22 E1.01462
G1 X233.93 Y80.754 E.01675
G1 X211.07 Y57.893 E1.01462
G1 X211.07 Y58.427 E.01675
G1 X233.93 Y81.287 E1.01462
G1 X233.93 Y81.821 E.01675
G1 X211.07 Y58.961 E1.01462
G1 X211.07 Y59.495 E.01675
G1 X233.93 Y82.355 E1.01462
G1 X233.93 Y82.889 E.01675
G1 X211.07 Y60.028 E1.01462
G1 X211.07 Y60.562 E.01675
G1 X233.93 Y83.422 E1.01462
G1 X233.93 Y83.956 E.01675
G1 X211.07 Y61.096 E1.01462
G1 X211.07 Y61.63 E.01675
